; HEADER_BLOCK_START
; generated by AnycubicSlicerNext 1.3.7.3 on 2026-02-16 at 20:33:42
; total layer number: 30
; filament_density: 1.23
; filament_diameter: 1.75
; max_z_height: 6.04
; exclude_object: 0
; model_instances: 1
; source_info: {"models":[{"file_source":0,"mo_file_id":-1,"name":"stripe-bender.stl_id_0_copy_0"}],"models_from":0,"plate_index":1,"slice_paras_process":2,"software_version":"AnycubicSlicerNext 1.3.7.3 20250928154607"}
; HEADER_BLOCK_END

; THUMBNAIL_BLOCK_START
; THUMBNAIL_BLOCK_END

; external perimeters extrusion width = 0.42mm
; perimeters extrusion width = 0.45mm
; infill extrusion width = 0.45mm
; solid infill extrusion width = 0.42mm
; top infill extrusion width = 0.42mm
; first layer extrusion width = 0.50mm

; EXECUTABLE_BLOCK_START
M201 X20000 Y20000 Z5000 E20000 ; sets machine_max_acceleration_x, y, z, e (mm/sec^2)
M203 X500 Y500 Z16 E80 ; sets machine_max_speed_x, y, z, e (mm/sec)
M204 P20000 R20000 T9000 ; sets machine_max_acceleration(mm/sec^2) M204 P[print] R[retract] T[travel]
M205 X20.00 Y20.00 Z8.00 E20.00 ; sets the jerk limits, mm/sec
;TYPE:Custom
G90 ;Use absolute coordinates
M83 ;Extruder relative mode
M140 S65 ;Set bed temp
M190 S65 ;Wait for bed temp
M104 S230 ;Set extruder temp
M109 S230 ;Wait for extruder temp
G28 ;Move X/Y/Z to min endstops
G1 Z0.28 ;Lift nozzle a bit
G92 E0 ;Specify current extruder position as zero
G1 Y222 F1800 ;Move Y to purge point
G1 X180 E25 F500 ;Extrude 25mm of filament in a 5cm line
G92 E0 ;Zero the extruded length again
G1 E-0.2 F500 ;Retract a little
G1 X181 F4000 ;Quickly wipe away from the filament line
M117
M900 K0.07
G90
G21
M83 ; use relative distances for extrusion
; filament start gcode
M900 K0.05; Override pressure advance value
M106 S0
;LAYER_CHANGE
;Z:0.24
;HEIGHT:0.24
G1 E-2 F2400
; layer num/total_layer_count: 1/30
M204 S500
; printing object "stripe-bender.stl" id:0 copy 0
G1 X195.791 Y101.952 F18000
G1 Z.24
G1 E2 F2400
;TYPE:Inner wall
;WIDTH:0.5
G1 F2700
G1 X194.975 Y101.377 E.04198
G1 X194.232 Y100.948 E.03607
G1 X193.458 Y100.584 E.03599
G1 X192.656 Y100.286 E.03598
G1 X191.832 Y100.056 E.03599
G1 X190.992 Y99.895 E.03598
G1 X190.141 Y99.806 E.03598
G1 X189.286 Y99.788 E.03599
G1 X188.432 Y99.842 E.03598
G1 X187.586 Y99.967 E.03599
G1 X186.753 Y100.162 E.03599
G1 X185.94 Y100.426 E.03598
G1 X185.151 Y100.758 E.03598
G1 X184.399 Y101.151 E.0357
G1 X184.007 Y101.389 E.01929
G1 X183.33 Y101.86 E.0347
G1 X182.971 Y102.146 E.01928
G1 X182.353 Y102.702 E.03498
G1 X181.768 Y103.326 E.03598
G1 X181.237 Y103.996 E.03599
G1 X180.767 Y104.703 E.03568
G1 X180.348 Y105.465 E.0366
G1 X180.003 Y106.24 E.03567
G1 X179.729 Y107.025 E.03498
G1 X179.607 Y107.459 E.01898
G1 X179.508 Y107.884 E.01833
G1 X179.366 Y108.72 E.03568
G1 X179.295 Y109.565 E.03568
G1 X179.286 Y110 E.0183
G1 X179.295 Y110.435 E.0183
G1 X179.366 Y111.28 E.03568
G1 X179.509 Y112.124 E.03598
G1 X179.722 Y112.952 E.03599
G1 X180.003 Y113.76 E.03599
G1 X180.351 Y114.542 E.03598
G1 X180.763 Y115.291 E.03599
G1 X181.237 Y116.004 E.03598
G1 X181.768 Y116.674 E.03599
G1 X182.354 Y117.298 E.03599
G1 X182.984 Y117.865 E.03568
G1 X183.331 Y118.14 E.01861
G1 X184.021 Y118.62 E.03537
G1 X184.399 Y118.849 E.01861
G1 X185.151 Y119.242 E.03568
G1 X185.94 Y119.574 E.03598
G1 X186.753 Y119.838 E.03598
G1 X187.586 Y120.033 E.03598
G1 X188.425 Y120.157 E.03568
G1 X189.293 Y120.212 E.0366
G1 X190.141 Y120.194 E.03568
G1 X190.992 Y120.105 E.03599
G1 X191.832 Y119.944 E.03598
G1 X192.649 Y119.716 E.03568
G1 X193.067 Y119.571 E.01861
G1 X193.849 Y119.242 E.03568
G1 X194.607 Y118.846 E.036
G1 X195.326 Y118.388 E.03583
G1 X195.795 Y118.04 E.02456
G1 X195.787 Y125.287 E.30482
G1 X24.213 Y125.287 E7.21742
G1 X24.213 Y94.713 E1.28608
G1 X195.787 Y94.713 E7.21739
G1 X195.787 Y100.707 E.25213
G1 X195.791 Y101.892 E.04983
G1 E-1.11111 F2400
;WIPE_START
G1 F2700
G1 X194.975 Y101.377 E-.85739
G1 X194.944 Y101.359 E-.0315
;WIPE_END
G1 X196.243 Y102.969 F18000
G1 E2 F2400
;TYPE:Outer wall
G1 F2700
G1 X196.025 Y102.755 E.01283
G1 X195.403 Y102.227 E.03435
G1 X194.733 Y101.755 E.03446
G1 X194.024 Y101.346 E.03444
G1 X193.284 Y100.998 E.0344
G1 X192.518 Y100.713 E.0344
G1 X191.73 Y100.493 E.03441
G1 X190.927 Y100.34 E.0344
G1 X190.113 Y100.254 E.0344
G1 X189.295 Y100.237 E.0344
G1 X188.479 Y100.288 E.0344
G1 X187.67 Y100.408 E.0344
G1 X186.874 Y100.595 E.0344
G1 X186.096 Y100.847 E.0344
G1 X185.342 Y101.164 E.0344
G1 X184.62 Y101.542 E.0343
G1 X184.252 Y101.765 E.0181
G1 X183.598 Y102.22 E.03351
G1 X183.261 Y102.488 E.01809
G1 X182.668 Y103.023 E.03361
G1 X182.108 Y103.619 E.0344
G1 X181.6 Y104.26 E.0344
G1 X181.149 Y104.939 E.03429
G1 X180.752 Y105.66 E.03462
G1 X180.421 Y106.405 E.03429
G1 X180.157 Y107.16 E.03362
G1 X180.042 Y107.571 E.01799
G1 X179.948 Y107.972 E.01732
G1 X179.812 Y108.776 E.03429
G1 X179.744 Y109.588 E.03429
G1 X179.735 Y110 E.01732
G1 X179.744 Y110.412 E.01732
G1 X179.812 Y111.224 E.03429
G1 X179.948 Y112.03 E.0344
G1 X180.152 Y112.822 E.0344
G1 X180.421 Y113.595 E.0344
G1 X180.753 Y114.342 E.0344
G1 X181.147 Y115.059 E.0344
G1 X181.6 Y115.74 E.0344
G1 X182.108 Y116.381 E.0344
G1 X182.668 Y116.977 E.0344
G1 X183.273 Y117.522 E.03429
G1 X183.598 Y117.78 E.01743
G1 X184.265 Y118.244 E.03418
G1 X184.62 Y118.458 E.01743
G1 X185.342 Y118.836 E.03429
G1 X186.096 Y119.153 E.0344
G1 X186.874 Y119.405 E.0344
G1 X187.67 Y119.592 E.0344
G1 X188.477 Y119.711 E.03429
G1 X189.298 Y119.763 E.03462
G1 X190.113 Y119.746 E.03429
G1 X190.927 Y119.66 E.0344
G1 X191.73 Y119.507 E.0344
G1 X192.515 Y119.288 E.0343
G1 X192.906 Y119.152 E.01742
G1 X193.658 Y118.836 E.03429
G1 X194.383 Y118.457 E.03441
G1 X195.072 Y118.019 E.03435
G1 X195.405 Y117.771 E.01748
G1 X196.025 Y117.245 E.03422
G1 X196.244 Y117.029 E.01291
G1 X196.235 Y125.735 E.36621
G1 X23.765 Y125.735 E7.25513
G1 X23.765 Y94.265 E1.32382
G1 X196.235 Y94.265 E7.25512
G1 X196.235 Y100.706 E.27096
G1 X196.243 Y102.909 E.09266
G1 E-1.11111 F2400
;WIPE_START
G1 F2700
G1 X196.025 Y102.755 E-.23654
G1 X195.466 Y102.281 E-.65234
;WIPE_END
G1 X194.745 Y94.848 F18000
G1 E2 F2400
;TYPE:Bottom surface
;WIDTH:0.499999
G1 F2700
G1 X195.45 Y95.553 E.04193
G1 X195.45 Y96.187 E.02668
G1 X194.313 Y95.05 E.06766
G1 X193.679 Y95.05 E.02668
G1 X195.45 Y96.821 E.10539
G1 X195.45 Y97.456 E.02668
G1 X193.044 Y95.05 E.14312
G1 X192.41 Y95.05 E.02668
G1 X195.45 Y98.09 E.18085
G1 X195.45 Y98.724 E.02668
G1 X191.776 Y95.05 E.21859
G1 X191.142 Y95.05 E.02668
G1 X195.45 Y99.358 E.25632
G1 X195.45 Y99.993 E.02668
G1 X190.507 Y95.05 E.29405
G1 X189.873 Y95.05 E.02668
G1 X195.45 Y100.627 E.33178
G1 X195.452 Y101.263 E.02676
G1 X189.239 Y95.05 E.36963
G1 X188.604 Y95.05 E.02668
G1 X194.041 Y100.487 E.32343
G1 X193.589 Y100.274 E.02104
G1 X192.96 Y100.04 E.0282
G1 X187.97 Y95.05 E.29686
G1 X187.336 Y95.05 E.02668
G1 X192.055 Y99.769 E.28072
G1 X191.255 Y99.603 E.03435
G1 X186.702 Y95.05 E.27088
G1 X186.067 Y95.05 E.02668
G1 X190.526 Y99.508 E.26523
G1 X190.163 Y99.47 E.01537
G1 X189.847 Y99.463 E.01329
G1 X185.433 Y95.05 E.26256
G1 X184.799 Y95.05 E.02668
G1 X189.205 Y99.456 E.26213
G1 X188.608 Y99.494 E.02515
G1 X184.165 Y95.05 E.26437
G1 X183.53 Y95.05 E.02668
G1 X188.04 Y99.56 E.26829
G1 X187.49 Y99.644 E.02341
G1 X182.896 Y95.05 E.2733
G1 X182.262 Y95.05 E.02668
G1 X186.976 Y99.764 E.28047
G1 X186.476 Y99.898 E.02178
G1 X181.628 Y95.05 E.28845
G1 X180.993 Y95.05 E.02668
G1 X185.997 Y100.054 E.2977
G1 X185.539 Y100.23 E.02065
G1 X180.359 Y95.05 E.30817
G1 X179.725 Y95.05 E.02668
G1 X185.093 Y100.418 E.31933
G1 X184.67 Y100.63 E.01988
G1 X179.09 Y95.05 E.33195
G1 X178.456 Y95.05 E.02668
G1 X184.254 Y100.847 E.3449
G1 X183.858 Y101.086 E.01943
G1 X177.822 Y95.05 E.3591
G1 X177.188 Y95.05 E.02668
G1 X183.482 Y101.345 E.37448
G1 X183.109 Y101.606 E.01916
G1 X176.553 Y95.05 E.39002
G1 X175.919 Y95.05 E.02668
G1 X182.756 Y101.887 E.40674
G1 X182.422 Y102.187 E.01889
G1 X175.285 Y95.05 E.42462
G1 X174.651 Y95.05 E.02668
G1 X182.091 Y102.49 E.44264
G1 X181.784 Y102.817 E.01888
G1 X174.016 Y95.05 E.4621
G1 X173.382 Y95.05 E.02668
G1 X181.48 Y103.148 E.48175
G1 X181.2 Y103.502 E.01899
G1 X172.748 Y95.05 E.50279
G1 X172.114 Y95.05 E.02668
G1 X180.923 Y103.86 E.5241
G1 X180.67 Y104.241 E.01925
G1 X171.479 Y95.05 E.54678
G1 X170.845 Y95.05 E.02668
G1 X180.424 Y104.629 E.56986
G1 X180.199 Y105.038 E.01965
G1 X170.211 Y95.05 E.59421
G1 X169.576 Y95.05 E.02668
G1 X179.984 Y105.457 E.61912
G1 X179.788 Y105.896 E.02021
G1 X168.942 Y95.05 E.64523
G1 X168.308 Y95.05 E.02668
G1 X179.608 Y106.35 E.67227
G1 X179.444 Y106.821 E.02095
G1 X167.674 Y95.05 E.70025
G1 X167.039 Y95.05 E.02668
G1 X179.3 Y107.31 E.72938
G1 X179.177 Y107.822 E.02213
G1 X166.405 Y95.05 E.75981
G1 X165.771 Y95.05 E.02668
G1 X179.085 Y108.364 E.79209
G1 X179.012 Y108.925 E.02378
G1 X165.137 Y95.05 E.82543
G1 X164.502 Y95.05 E.02668
G1 X178.963 Y109.51 E.86024
G1 X178.953 Y110.135 E.02627
G1 X163.868 Y95.05 E.89739
G1 X163.234 Y95.05 E.02668
G1 X178.989 Y110.805 E.93728
G1 X179.065 Y111.515 E.03005
G1 X162.6 Y95.05 E.97954
G1 X161.965 Y95.05 E.02668
G1 X179.204 Y112.289 E1.02555
G1 X179.436 Y113.155 E.03773
G1 X161.331 Y95.05 E1.07709
G1 X160.697 Y95.05 E.02668
G1 X180.216 Y114.569 E1.16122
G1 E-1.11111 F2400
;WIPE_START
G1 F2700
G1 X179.509 Y113.862 E-.88889
;WIPE_END
G1 X195.113 Y118.683 F18000
G1 E2 F2400
G1 F2700
G1 X195.457 Y119.028 E.0205
G1 X195.457 Y119.662 E.02665
G1 X194.871 Y119.076 E.03482
G1 X194.462 Y119.301 E.01965
G1 X195.456 Y120.295 E.05914
G1 X195.455 Y120.929 E.02665
G1 X194.045 Y119.519 E.08388
G1 X193.603 Y119.71 E.02029
G1 X195.455 Y121.562 E.11018
G1 X195.454 Y122.196 E.02665
G1 X193.154 Y119.896 E.13681
G1 X192.68 Y120.057 E.02105
G1 X195.453 Y122.83 E.16496
G1 X195.453 Y123.463 E.02665
G1 X192.185 Y120.195 E.19442
G1 X191.672 Y120.317 E.02215
G1 X195.452 Y124.097 E.22485
G1 X195.451 Y124.73 E.02665
G1 X191.14 Y120.419 E.2565
G1 X190.573 Y120.487 E.02399
G1 X195.037 Y124.95 E.26553
G1 X194.403 Y124.95 E.02668
G1 X189.986 Y120.534 E.26274
G1 X189.365 Y120.547 E.02614
G1 X193.768 Y124.95 E.26196
G1 X193.134 Y124.95 E.02668
G1 X188.695 Y120.511 E.26408
G1 X188.39 Y120.492 E.01286
G1 X187.981 Y120.432 E.01738
G1 X192.5 Y124.95 E.26881
G1 X191.866 Y124.95 E.02668
G1 X187.205 Y120.289 E.27728
G1 X186.663 Y120.162 E.02341
G1 X186.338 Y120.056 E.01438
G1 X191.231 Y124.95 E.29112
G1 X190.597 Y124.95 E.02668
G1 X184.92 Y119.273 E.33774
G1 E-1.11111 F2400
;WIPE_START
G1 F2700
G1 X185.627 Y119.98 E-.88889
;WIPE_END
G1 X190.165 Y125.152 F18000
G1 E2 F2400
G1 F2700
G1 X184.033 Y119.02 E.36477
G1 X183.13 Y118.41 E.04585
G1 X182.767 Y118.122 E.0195
G1 X182.118 Y117.538 E.03671
G1 X181.513 Y116.894 E.03717
G1 X180.964 Y116.202 E.03717
G1 X180.472 Y115.459 E.03748
G1 X160.062 Y95.05 E1.21415
G1 X159.428 Y95.05 E.02668
G1 X189.328 Y124.95 E1.77877
G1 X188.694 Y124.95 E.02668
G1 X158.794 Y95.05 E1.77877
G1 X158.16 Y95.05 E.02668
G1 X188.06 Y124.95 E1.77877
G1 X187.426 Y124.95 E.02668
G1 X157.525 Y95.05 E1.77877
G1 X156.891 Y95.05 E.02668
G1 X186.791 Y124.95 E1.77877
G1 X186.157 Y124.95 E.02668
G1 X156.257 Y95.05 E1.77877
G1 X155.623 Y95.05 E.02668
G1 X185.523 Y124.95 E1.77877
G1 X184.889 Y124.95 E.02668
G1 X154.988 Y95.05 E1.77877
G1 X154.354 Y95.05 E.02668
G1 X184.254 Y124.95 E1.77877
G1 X183.62 Y124.95 E.02668
G1 X153.72 Y95.05 E1.77877
G1 X153.085 Y95.05 E.02668
G1 X182.986 Y124.95 E1.77877
G1 X182.351 Y124.95 E.02668
G1 X152.451 Y95.05 E1.77877
G1 X151.817 Y95.05 E.02668
G1 X181.717 Y124.95 E1.77877
G1 X181.083 Y124.95 E.02668
G1 X151.183 Y95.05 E1.77877
G1 X150.548 Y95.05 E.02668
G1 X180.449 Y124.95 E1.77877
G1 X179.814 Y124.95 E.02668
G1 X149.914 Y95.05 E1.77877
G1 X149.28 Y95.05 E.02668
G1 X179.18 Y124.95 E1.77877
G1 X178.546 Y124.95 E.02668
G1 X148.646 Y95.05 E1.77877
G1 X148.011 Y95.05 E.02668
G1 X177.912 Y124.95 E1.77877
G1 X177.277 Y124.95 E.02668
G1 X147.377 Y95.05 E1.77877
G1 X146.743 Y95.05 E.02668
G1 X176.643 Y124.95 E1.77877
G1 X176.009 Y124.95 E.02668
G1 X146.109 Y95.05 E1.77877
G1 X145.474 Y95.05 E.02668
G1 X175.375 Y124.95 E1.77877
G1 X174.74 Y124.95 E.02668
G1 X144.84 Y95.05 E1.77877
G1 X144.206 Y95.05 E.02668
G1 X174.106 Y124.95 E1.77877
G1 X173.472 Y124.95 E.02668
G1 X143.571 Y95.05 E1.77877
G1 X142.937 Y95.05 E.02668
G1 X172.837 Y124.95 E1.77877
G1 X172.203 Y124.95 E.02668
G1 X142.303 Y95.05 E1.77877
G1 X141.669 Y95.05 E.02668
G1 X171.569 Y124.95 E1.77877
G1 X170.935 Y124.95 E.02668
G1 X141.034 Y95.05 E1.77877
G1 X140.4 Y95.05 E.02668
G1 X170.3 Y124.95 E1.77877
G1 X169.666 Y124.95 E.02668
G1 X139.766 Y95.05 E1.77877
G1 X139.132 Y95.05 E.02668
G1 X169.032 Y124.95 E1.77877
G1 X168.398 Y124.95 E.02668
G1 X138.497 Y95.05 E1.77877
G1 X137.863 Y95.05 E.02668
G1 X167.763 Y124.95 E1.77877
G1 X167.129 Y124.95 E.02668
G1 X137.229 Y95.05 E1.77877
G1 X136.595 Y95.05 E.02668
G1 X166.495 Y124.95 E1.77877
G1 X165.861 Y124.95 E.02668
G1 X135.96 Y95.05 E1.77877
G1 X135.326 Y95.05 E.02668
G1 X165.226 Y124.95 E1.77877
G1 X164.592 Y124.95 E.02668
G1 X134.692 Y95.05 E1.77877
G1 X134.057 Y95.05 E.02668
G1 X163.958 Y124.95 E1.77877
G1 X163.323 Y124.95 E.02668
G1 X133.423 Y95.05 E1.77877
G1 X132.789 Y95.05 E.02668
G1 X162.689 Y124.95 E1.77877
G1 X162.055 Y124.95 E.02668
G1 X132.155 Y95.05 E1.77877
G1 X131.52 Y95.05 E.02668
G1 X161.421 Y124.95 E1.77877
G1 X160.786 Y124.95 E.02668
G1 X130.886 Y95.05 E1.77877
G1 X130.252 Y95.05 E.02668
G1 X160.152 Y124.95 E1.77877
G1 X159.518 Y124.95 E.02668
G1 X129.618 Y95.05 E1.77877
G1 X128.983 Y95.05 E.02668
G1 X158.884 Y124.95 E1.77877
G1 X158.249 Y124.95 E.02668
G1 X128.349 Y95.05 E1.77877
G1 X127.715 Y95.05 E.02668
G1 X157.615 Y124.95 E1.77877
G1 X156.981 Y124.95 E.02668
G1 X127.081 Y95.05 E1.77877
G1 X126.446 Y95.05 E.02668
G1 X156.347 Y124.95 E1.77877
G1 X155.712 Y124.95 E.02668
G1 X125.812 Y95.05 E1.77877
G1 X125.178 Y95.05 E.02668
G1 X155.078 Y124.95 E1.77877
G1 X154.444 Y124.95 E.02668
G1 X124.543 Y95.05 E1.77877
G1 X123.909 Y95.05 E.02668
G1 X153.809 Y124.95 E1.77877
G1 X153.175 Y124.95 E.02668
G1 X123.275 Y95.05 E1.77877
G1 X122.641 Y95.05 E.02668
G1 X152.541 Y124.95 E1.77877
G1 X151.907 Y124.95 E.02668
G1 X122.006 Y95.05 E1.77877
G1 X121.372 Y95.05 E.02668
G1 X151.272 Y124.95 E1.77877
G1 X150.638 Y124.95 E.02668
G1 X120.738 Y95.05 E1.77877
G1 X120.104 Y95.05 E.02668
G1 X150.004 Y124.95 E1.77877
G1 X149.37 Y124.95 E.02668
G1 X119.469 Y95.05 E1.77877
G1 X118.835 Y95.05 E.02668
G1 X148.735 Y124.95 E1.77877
G1 X148.101 Y124.95 E.02668
G1 X118.201 Y95.05 E1.77877
G1 X117.566 Y95.05 E.02668
G1 X147.467 Y124.95 E1.77877
G1 X146.833 Y124.95 E.02668
G1 X116.932 Y95.05 E1.77877
G1 X116.298 Y95.05 E.02668
G1 X146.198 Y124.95 E1.77877
G1 X145.564 Y124.95 E.02668
G1 X115.664 Y95.05 E1.77877
G1 X115.029 Y95.05 E.02668
G1 X144.93 Y124.95 E1.77877
G1 X144.295 Y124.95 E.02668
G1 X114.395 Y95.05 E1.77877
G1 X113.761 Y95.05 E.02668
G1 X143.661 Y124.95 E1.77877
G1 X143.027 Y124.95 E.02668
G1 X113.127 Y95.05 E1.77877
G1 X112.492 Y95.05 E.02668
G1 X142.393 Y124.95 E1.77877
G1 X141.758 Y124.95 E.02668
G1 X111.858 Y95.05 E1.77877
G1 X111.224 Y95.05 E.02668
G1 X141.124 Y124.95 E1.77877
G1 X140.49 Y124.95 E.02668
G1 X110.59 Y95.05 E1.77877
G1 X109.955 Y95.05 E.02668
G1 X139.856 Y124.95 E1.77877
G1 X139.221 Y124.95 E.02668
G1 X109.321 Y95.05 E1.77877
G1 X108.687 Y95.05 E.02668
G1 X138.587 Y124.95 E1.77877
G1 X137.953 Y124.95 E.02668
G1 X108.052 Y95.05 E1.77877
G1 X107.418 Y95.05 E.02668
G1 X137.318 Y124.95 E1.77877
G1 X136.684 Y124.95 E.02668
G1 X106.784 Y95.05 E1.77877
G1 X106.15 Y95.05 E.02668
G1 X136.05 Y124.95 E1.77877
G1 X135.416 Y124.95 E.02668
G1 X105.515 Y95.05 E1.77877
G1 X104.881 Y95.05 E.02668
G1 X134.781 Y124.95 E1.77877
G1 X134.147 Y124.95 E.02668
G1 X104.247 Y95.05 E1.77877
G1 X103.613 Y95.05 E.02668
G1 X133.513 Y124.95 E1.77877
G1 X132.879 Y124.95 E.02668
G1 X102.978 Y95.05 E1.77877
G1 X102.344 Y95.05 E.02668
G1 X132.244 Y124.95 E1.77877
G1 X131.61 Y124.95 E.02668
G1 X101.71 Y95.05 E1.77877
G1 X101.076 Y95.05 E.02668
G1 X130.976 Y124.95 E1.77877
G1 X130.342 Y124.95 E.02668
G1 X100.441 Y95.05 E1.77877
G1 X99.807 Y95.05 E.02668
G1 X129.707 Y124.95 E1.77877
