; HEADER_BLOCK_START
; generated by AnycubicSlicerNext 1.3.7.3 on 2026-02-18 at 11:30:32
; total layer number: 50
; filament_density: 1.23
; filament_diameter: 1.75
; max_z_height: 7.04
; exclude_object: 0
; model_instances: 1
; source_info: {"models":[{"file_source":0,"mo_file_id":-1,"name":"paper-cutter.stl_id_0_copy_0"}],"models_from":0,"plate_index":1,"slice_paras_process":1,"software_version":"AnycubicSlicerNext 1.3.7.3 20250928154607"}
; HEADER_BLOCK_END

; THUMBNAIL_BLOCK_START
; THUMBNAIL_BLOCK_END

; external perimeters extrusion width = 0.42mm
; perimeters extrusion width = 0.45mm
; infill extrusion width = 0.45mm
; solid infill extrusion width = 0.42mm
; top infill extrusion width = 0.42mm
; support material extrusion width = 0.40mm
; first layer extrusion width = 0.50mm

; EXECUTABLE_BLOCK_START
M201 X20000 Y20000 Z5000 E20000 ; sets machine_max_acceleration_x, y, z, e (mm/sec^2)
M203 X500 Y500 Z16 E80 ; sets machine_max_speed_x, y, z, e (mm/sec)
M204 P20000 R20000 T9000 ; sets machine_max_acceleration(mm/sec^2) M204 P[print] R[retract] T[travel]
M205 X20.00 Y20.00 Z8.00 E20.00 ; sets the jerk limits, mm/sec
;TYPE:Custom
G90 ;Use absolute coordinates
M83 ;Extruder relative mode
M140 S65 ;Set bed temp
M190 S65 ;Wait for bed temp
M104 S230 ;Set extruder temp
M109 S230 ;Wait for extruder temp
G28 ;Move X/Y/Z to min endstops
G1 Z0.28 ;Lift nozzle a bit
G92 E0 ;Specify current extruder position as zero
G1 Y222 F1800 ;Move Y to purge point
G1 X180 E25 F500 ;Extrude 25mm of filament in a 5cm line
G92 E0 ;Zero the extruded length again
G1 E-0.2 F500 ;Retract a little
G1 X181 F4000 ;Quickly wipe away from the filament line
M117
M900 K0.07
G90
G21
M83 ; use relative distances for extrusion
; filament start gcode
M900 K0.05; Override pressure advance value
M106 S0
;LAYER_CHANGE
;Z:0.24
;HEIGHT:0.24
G1 E-2 F2400
; layer num/total_layer_count: 1/50
M204 S500
; printing object "paper-cutter.stl" id:0 copy 0
G1 X220.497 Y103.85 F18000
G1 Z.24
G1 E2 F2400
;TYPE:Support
;WIDTH:0.5
G1 F2700
G1 X220.45 Y103.85 E.002
G1 X220.45 Y103.314 E.02256
G1 X220.186 Y103.05 E.01568
G1 X-.186 Y103.05 E9.2702
G1 X-.45 Y103.314 E.01568
G1 X-.45 Y103.85 E.02256
G1 X-.497 Y103.85 E.002
G1 X-.497 Y99.5 E.18297
G1 X220.497 Y99.5 E9.29637
G1 X220.497 Y103.783 E.18014
G1 E-1.11111 F2400
;WIPE_START
G1 F2700
G1 X220.497 Y102.783 E-.88889
;WIPE_END
G1 X219.632 Y102.848 F18000
G1 E2 F2400
G1 F2700
G1 X219.632 Y99.904 E.12385
G1 X219.134 Y99.904 E.02096
G1 X219.134 Y102.646 E.11536
G1 X218.636 Y102.646 E.02096
G1 X218.636 Y99.904 E.11536
G1 X218.137 Y99.904 E.02096
G1 X218.137 Y102.646 E.11536
G1 X217.639 Y102.646 E.02096
G1 X217.639 Y99.904 E.11536
G1 X217.141 Y99.904 E.02096
G1 X217.141 Y102.646 E.11536
G1 X216.642 Y102.646 E.02096
G1 X216.642 Y99.904 E.11536
G1 X216.144 Y99.904 E.02096
G1 X216.144 Y102.646 E.11536
G1 X215.646 Y102.646 E.02096
G1 X215.646 Y99.904 E.11536
G1 X215.147 Y99.904 E.02096
G1 X215.147 Y102.646 E.11536
G1 X214.649 Y102.646 E.02096
G1 X214.649 Y99.904 E.11536
G1 X214.151 Y99.904 E.02096
G1 X214.151 Y102.646 E.11536
G1 X213.652 Y102.646 E.02096
G1 X213.652 Y99.904 E.11536
G1 X213.154 Y99.904 E.02096
G1 X213.154 Y102.646 E.11536
G1 X212.656 Y102.646 E.02096
G1 X212.656 Y99.904 E.11536
G1 X212.157 Y99.904 E.02096
G1 X212.157 Y102.646 E.11536
G1 X211.659 Y102.646 E.02096
G1 X211.659 Y99.904 E.11536
G1 X211.161 Y99.904 E.02096
G1 X211.161 Y102.646 E.11536
G1 X210.662 Y102.646 E.02096
G1 X210.662 Y99.904 E.11536
G1 X210.164 Y99.904 E.02096
G1 X210.164 Y102.646 E.11536
G1 X209.666 Y102.646 E.02096
G1 X209.666 Y99.904 E.11536
G1 X209.167 Y99.904 E.02096
G1 X209.167 Y102.646 E.11536
G1 X208.669 Y102.646 E.02096
G1 X208.669 Y99.904 E.11536
G1 X208.171 Y99.904 E.02096
G1 X208.171 Y102.646 E.11536
G1 X207.672 Y102.646 E.02096
G1 X207.672 Y99.904 E.11536
G1 X207.174 Y99.904 E.02096
G1 X207.174 Y102.646 E.11536
G1 X206.676 Y102.646 E.02096
G1 X206.676 Y99.904 E.11536
G1 X206.177 Y99.904 E.02096
G1 X206.177 Y102.646 E.11536
G1 X205.679 Y102.646 E.02096
G1 X205.679 Y99.904 E.11536
G1 X205.181 Y99.904 E.02096
G1 X205.181 Y102.646 E.11536
G1 X204.682 Y102.646 E.02096
G1 X204.682 Y99.904 E.11536
G1 X204.184 Y99.904 E.02096
G1 X204.184 Y102.646 E.11536
G1 X203.686 Y102.646 E.02096
G1 X203.686 Y99.904 E.11536
G1 X203.187 Y99.904 E.02096
G1 X203.187 Y102.646 E.11536
G1 X202.689 Y102.646 E.02096
G1 X202.689 Y99.904 E.11536
G1 X202.191 Y99.904 E.02096
G1 X202.191 Y102.646 E.11536
G1 X201.692 Y102.646 E.02096
G1 X201.692 Y99.904 E.11536
G1 X201.194 Y99.904 E.02096
G1 X201.194 Y102.646 E.11536
G1 X200.696 Y102.646 E.02096
G1 X200.696 Y99.904 E.11536
G1 X200.197 Y99.904 E.02096
G1 X200.197 Y102.646 E.11536
G1 X199.699 Y102.646 E.02096
G1 X199.699 Y99.904 E.11536
G1 X199.201 Y99.904 E.02096
G1 X199.201 Y102.646 E.11536
G1 X198.702 Y102.646 E.02096
G1 X198.702 Y99.904 E.11536
G1 X198.204 Y99.904 E.02096
G1 X198.204 Y102.646 E.11536
G1 X197.706 Y102.646 E.02096
G1 X197.706 Y99.904 E.11536
G1 X197.207 Y99.904 E.02096
G1 X197.207 Y102.646 E.11536
G1 X196.709 Y102.646 E.02096
G1 X196.709 Y99.904 E.11536
G1 X196.211 Y99.904 E.02096
G1 X196.211 Y102.646 E.11536
G1 X195.712 Y102.646 E.02096
G1 X195.712 Y99.904 E.11536
G1 X195.214 Y99.904 E.02096
G1 X195.214 Y102.646 E.11536
G1 X194.716 Y102.646 E.02096
G1 X194.716 Y99.904 E.11536
G1 X194.217 Y99.904 E.02096
G1 X194.217 Y102.646 E.11536
G1 X193.719 Y102.646 E.02096
G1 X193.719 Y99.904 E.11536
G1 X193.221 Y99.904 E.02096
G1 X193.221 Y102.646 E.11536
G1 X192.722 Y102.646 E.02096
G1 X192.722 Y99.904 E.11536
G1 X192.224 Y99.904 E.02096
G1 X192.224 Y102.646 E.11536
G1 X191.726 Y102.646 E.02096
G1 X191.726 Y99.904 E.11536
G1 X191.227 Y99.904 E.02096
G1 X191.227 Y102.646 E.11536
G1 X190.729 Y102.646 E.02096
G1 X190.729 Y99.904 E.11536
G1 X190.231 Y99.904 E.02096
G1 X190.231 Y102.646 E.11536
G1 X189.732 Y102.646 E.02096
G1 X189.732 Y99.904 E.11536
G1 X189.234 Y99.904 E.02096
G1 X189.234 Y102.646 E.11536
G1 X188.736 Y102.646 E.02096
G1 X188.736 Y99.904 E.11536
G1 X188.237 Y99.904 E.02096
G1 X188.237 Y102.646 E.11536
G1 X187.739 Y102.646 E.02096
G1 X187.739 Y99.904 E.11536
G1 X187.241 Y99.904 E.02096
G1 X187.241 Y102.646 E.11536
G1 X186.743 Y102.646 E.02096
G1 X186.743 Y99.904 E.11536
G1 X186.244 Y99.904 E.02096
G1 X186.244 Y102.646 E.11536
G1 X185.746 Y102.646 E.02096
G1 X185.746 Y99.904 E.11536
G1 X185.248 Y99.904 E.02096
G1 X185.248 Y102.646 E.11536
G1 X184.749 Y102.646 E.02096
G1 X184.749 Y99.904 E.11536
G1 X184.251 Y99.904 E.02096
G1 X184.251 Y102.646 E.11536
G1 X183.753 Y102.646 E.02096
G1 X183.753 Y99.904 E.11536
G1 X183.254 Y99.904 E.02096
G1 X183.254 Y102.646 E.11536
G1 X182.756 Y102.646 E.02096
G1 X182.756 Y99.904 E.11536
G1 X182.258 Y99.904 E.02096
G1 X182.258 Y102.646 E.11536
G1 X181.759 Y102.646 E.02096
G1 X181.759 Y99.904 E.11536
G1 X181.261 Y99.904 E.02096
G1 X181.261 Y102.646 E.11536
G1 X180.763 Y102.646 E.02096
G1 X180.763 Y99.904 E.11536
G1 X180.264 Y99.904 E.02096
G1 X180.264 Y102.646 E.11536
G1 X179.766 Y102.646 E.02096
G1 X179.766 Y99.904 E.11536
G1 X179.268 Y99.904 E.02096
G1 X179.268 Y102.646 E.11536
G1 X178.769 Y102.646 E.02096
G1 X178.769 Y99.904 E.11536
G1 X178.271 Y99.904 E.02096
G1 X178.271 Y102.646 E.11536
G1 X177.773 Y102.646 E.02096
G1 X177.773 Y99.904 E.11536
G1 X177.274 Y99.904 E.02096
G1 X177.274 Y102.646 E.11536
G1 X176.776 Y102.646 E.02096
G1 X176.776 Y99.904 E.11536
G1 X176.278 Y99.904 E.02096
G1 X176.278 Y102.646 E.11536
G1 X175.779 Y102.646 E.02096
G1 X175.779 Y99.904 E.11536
G1 X175.281 Y99.904 E.02096
G1 X175.281 Y102.646 E.11536
G1 X174.783 Y102.646 E.02096
G1 X174.783 Y99.904 E.11536
G1 X174.284 Y99.904 E.02096
G1 X174.284 Y102.646 E.11536
G1 X173.786 Y102.646 E.02096
G1 X173.786 Y99.904 E.11536
G1 X173.288 Y99.904 E.02096
G1 X173.288 Y102.646 E.11536
G1 X172.789 Y102.646 E.02096
G1 X172.789 Y99.904 E.11536
G1 X172.291 Y99.904 E.02096
G1 X172.291 Y102.646 E.11536
G1 X171.793 Y102.646 E.02096
G1 X171.793 Y99.904 E.11536
G1 X171.294 Y99.904 E.02096
G1 X171.294 Y102.646 E.11536
G1 X170.796 Y102.646 E.02096
G1 X170.796 Y99.904 E.11536
G1 X170.298 Y99.904 E.02096
G1 X170.298 Y102.646 E.11536
G1 X169.799 Y102.646 E.02096
G1 X169.799 Y99.904 E.11536
G1 X169.301 Y99.904 E.02096
G1 X169.301 Y102.646 E.11536
G1 X168.803 Y102.646 E.02096
G1 X168.803 Y99.904 E.11536
G1 X168.304 Y99.904 E.02096
G1 X168.304 Y102.646 E.11536
G1 X167.806 Y102.646 E.02096
G1 X167.806 Y99.904 E.11536
G1 X167.308 Y99.904 E.02096
G1 X167.308 Y102.646 E.11536
G1 X166.809 Y102.646 E.02096
G1 X166.809 Y99.904 E.11536
G1 X166.311 Y99.904 E.02096
G1 X166.311 Y102.646 E.11536
G1 X165.813 Y102.646 E.02096
G1 X165.813 Y99.904 E.11536
G1 X165.314 Y99.904 E.02096
G1 X165.314 Y102.646 E.11536
G1 X164.816 Y102.646 E.02096
G1 X164.816 Y99.904 E.11536
G1 X164.318 Y99.904 E.02096
G1 X164.318 Y102.646 E.11536
G1 X163.819 Y102.646 E.02096
G1 X163.819 Y99.904 E.11536
G1 X163.321 Y99.904 E.02096
G1 X163.321 Y102.646 E.11536
G1 X162.823 Y102.646 E.02096
G1 X162.823 Y99.904 E.11536
G1 X162.324 Y99.904 E.02096
G1 X162.324 Y102.646 E.11536
G1 X161.826 Y102.646 E.02096
G1 X161.826 Y99.904 E.11536
G1 X161.328 Y99.904 E.02096
G1 X161.328 Y102.646 E.11536
G1 X160.829 Y102.646 E.02096
G1 X160.829 Y99.904 E.11536
G1 X160.331 Y99.904 E.02096
G1 X160.331 Y102.646 E.11536
G1 X159.833 Y102.646 E.02096
G1 X159.833 Y99.904 E.11536
G1 X159.334 Y99.904 E.02096
G1 X159.334 Y102.646 E.11536
G1 X158.836 Y102.646 E.02096
G1 X158.836 Y99.904 E.11536
G1 X158.338 Y99.904 E.02096
G1 X158.338 Y102.646 E.11536
G1 X157.839 Y102.646 E.02096
G1 X157.839 Y99.904 E.11536
G1 X157.341 Y99.904 E.02096
G1 X157.341 Y102.646 E.11536
G1 X156.843 Y102.646 E.02096
G1 X156.843 Y99.904 E.11536
G1 X156.345 Y99.904 E.02096
G1 X156.345 Y102.646 E.11536
G1 X155.846 Y102.646 E.02096
G1 X155.846 Y99.904 E.11536
G1 X155.348 Y99.904 E.02096
G1 X155.348 Y102.646 E.11536
G1 X154.85 Y102.646 E.02096
G1 X154.85 Y99.904 E.11536
G1 X154.351 Y99.904 E.02096
G1 X154.351 Y102.646 E.11536
G1 X153.853 Y102.646 E.02096
G1 X153.853 Y99.904 E.11536
G1 X153.355 Y99.904 E.02096
G1 X153.355 Y102.646 E.11536
G1 X152.856 Y102.646 E.02096
G1 X152.856 Y99.904 E.11536
G1 X152.358 Y99.904 E.02096
G1 X152.358 Y102.646 E.11536
G1 X151.86 Y102.646 E.02096
G1 X151.86 Y99.904 E.11536
G1 X151.361 Y99.904 E.02096
G1 X151.361 Y102.646 E.11536
G1 X150.863 Y102.646 E.02096
G1 X150.863 Y99.904 E.11536
G1 X150.365 Y99.904 E.02096
G1 X150.365 Y102.646 E.11536
G1 X149.866 Y102.646 E.02096
G1 X149.866 Y99.904 E.11536
G1 X149.368 Y99.904 E.02096
G1 X149.368 Y102.646 E.11536
G1 X148.87 Y102.646 E.02096
G1 X148.87 Y99.904 E.11536
G1 X148.371 Y99.904 E.02096
G1 X148.371 Y102.646 E.11536
G1 X147.873 Y102.646 E.02096
G1 X147.873 Y99.904 E.11536
G1 X147.375 Y99.904 E.02096
G1 X147.375 Y102.646 E.11536
G1 X146.876 Y102.646 E.02096
G1 X146.876 Y99.904 E.11536
G1 X146.378 Y99.904 E.02096
G1 X146.378 Y102.646 E.11536
G1 X145.88 Y102.646 E.02096
G1 X145.88 Y99.904 E.11536
G1 X145.381 Y99.904 E.02096
G1 X145.381 Y102.646 E.11536
G1 X144.883 Y102.646 E.02096
G1 X144.883 Y99.904 E.11536
G1 X144.385 Y99.904 E.02096
G1 X144.385 Y102.646 E.11536
G1 X143.886 Y102.646 E.02096
G1 X143.886 Y99.904 E.11536
G1 X143.388 Y99.904 E.02096
G1 X143.388 Y102.646 E.11536
G1 X142.89 Y102.646 E.02096
G1 X142.89 Y99.904 E.11536
G1 X142.391 Y99.904 E.02096
G1 X142.391 Y102.646 E.11536
G1 X141.893 Y102.646 E.02096
G1 X141.893 Y99.904 E.11536
G1 X141.395 Y99.904 E.02096
G1 X141.395 Y102.646 E.11536
G1 X140.896 Y102.646 E.02096
G1 X140.896 Y99.904 E.11536
G1 X140.398 Y99.904 E.02096
G1 X140.398 Y102.646 E.11536
G1 X139.9 Y102.646 E.02096
G1 X139.9 Y99.904 E.11536
G1 X139.401 Y99.904 E.02096
G1 X139.401 Y102.646 E.11536
G1 X138.903 Y102.646 E.02096
G1 X138.903 Y99.904 E.11536
G1 X138.405 Y99.904 E.02096
G1 X138.405 Y102.646 E.11536
G1 X137.906 Y102.646 E.02096
G1 X137.906 Y99.904 E.11536
G1 X137.408 Y99.904 E.02096
G1 X137.408 Y102.646 E.11536
G1 X136.91 Y102.646 E.02096
G1 X136.91 Y99.904 E.11536
G1 X136.411 Y99.904 E.02096
G1 X136.411 Y102.646 E.11536
G1 X135.913 Y102.646 E.02096
G1 X135.913 Y99.904 E.11536
G1 X135.415 Y99.904 E.02096
G1 X135.415 Y102.646 E.11536
G1 X134.916 Y102.646 E.02096
G1 X134.916 Y99.904 E.11536
G1 X134.418 Y99.904 E.02096
G1 X134.418 Y102.646 E.11536
G1 X133.92 Y102.646 E.02096
G1 X133.92 Y99.904 E.11536
G1 X133.421 Y99.904 E.02096
G1 X133.421 Y102.646 E.11536
G1 X132.923 Y102.646 E.02096
G1 X132.923 Y99.904 E.11536
G1 X132.425 Y99.904 E.02096
G1 X132.425 Y102.646 E.11536
G1 X131.926 Y102.646 E.02096
G1 X131.926 Y99.904 E.11536
G1 X131.428 Y99.904 E.02096
G1 X131.428 Y102.646 E.11536
G1 X130.93 Y102.646 E.02096
G1 X130.93 Y99.904 E.11536
G1 X130.431 Y99.904 E.02096
G1 X130.431 Y102.646 E.11536
G1 X129.933 Y102.646 E.02096
G1 X129.933 Y99.904 E.11536
G1 X129.435 Y99.904 E.02096
G1 X129.435 Y102.646 E.11536
G1 X128.936 Y102.646 E.02096
G1 X128.936 Y99.904 E.11536
G1 X128.438 Y99.904 E.02096
G1 X128.438 Y102.646 E.11536
G1 X127.94 Y102.646 E.02096
G1 X127.94 Y99.904 E.11536
G1 X127.441 Y99.904 E.02096
G1 X127.441 Y102.646 E.11536
G1 X126.943 Y102.646 E.02096
G1 X126.943 Y99.904 E.11536
G1 X126.445 Y99.904 E.02096
G1 X126.445 Y102.646 E.11536
G1 X125.946 Y102.646 E.02096
G1 X125.946 Y99.904 E.11536
G1 X125.448 Y99.904 E.02096
G1 X125.448 Y102.646 E.11536
G1 X124.95 Y102.646 E.02096
G1 X124.95 Y99.904 E.11536
G1 X124.452 Y99.904 E.02096
G1 X124.452 Y102.646 E.11536
G1 X123.953 Y102.646 E.02096
G1 X123.953 Y99.904 E.11536
G1 X123.455 Y99.904 E.02096
G1 X123.455 Y102.646 E.11536
G1 X122.957 Y102.646 E.02096
G1 X122.957 Y99.904 E.11536
G1 X122.458 Y99.904 E.02096
G1 X122.458 Y102.646 E.11536
G1 X121.96 Y102.646 E.02096
G1 X121.96 Y99.904 E.11536
G1 X121.462 Y99.904 E.02096
G1 X121.462 Y102.646 E.11536
G1 X120.963 Y102.646 E.02096
G1 X120.963 Y99.904 E.11536
G1 X120.465 Y99.904 E.02096
G1 X120.465 Y102.646 E.11536
G1 X119.967 Y102.646 E.02096
G1 X119.967 Y99.904 E.11536
G1 X119.468 Y99.904 E.02096
G1 X119.468 Y102.646 E.11536
G1 X118.97 Y102.646 E.02096
G1 X118.97 Y99.904 E.11536
G1 X118.472 Y99.904 E.02096
G1 X118.472 Y102.646 E.11536
G1 X117.973 Y102.646 E.02096
G1 X117.973 Y99.904 E.11536
G1 X117.475 Y99.904 E.02096
G1 X117.475 Y102.646 E.11536
G1 X116.977 Y102.646 E.02096
G1 X116.977 Y99.904 E.11536
G1 X116.478 Y99.904 E.02096
G1 X116.478 Y102.646 E.11536
G1 X115.98 Y102.646 E.02096
G1 X115.98 Y99.904 E.11536
G1 X115.482 Y99.904 E.02096
G1 X115.482 Y102.646 E.11536
G1 X114.983 Y102.646 E.02096
G1 X114.983 Y99.904 E.11536
G1 X114.485 Y99.904 E.02096
G1 X114.485 Y102.646 E.11536
G1 X113.987 Y102.646 E.02096
G1 X113.987 Y99.904 E.11536
G1 X113.488 Y99.904 E.02096
G1 X113.488 Y102.646 E.11536
G1 X112.99 Y102.646 E.02096
G1 X112.99 Y99.904 E.11536
G1 X112.492 Y99.904 E.02096
G1 X112.492 Y102.646 E.11536
G1 X111.993 Y102.646 E.02096
G1 X111.993 Y99.904 E.11536
G1 X111.495 Y99.904 E.02096
G1 X111.495 Y102.646 E.11536
G1 X110.997 Y102.646 E.02096
G1 X110.997 Y99.904 E.11536
G1 X110.498 Y99.904 E.02096
G1 X110.498 Y102.646 E.11536
G1 X110 Y102.646 E.02096
G1 X110 Y99.904 E.11536
G1 X109.502 Y99.904 E.02096
G1 X109.502 Y102.646 E.11536
G1 X109.003 Y102.646 E.02096
G1 X109.003 Y99.904 E.11536
G1 X108.505 Y99.904 E.02096
G1 X108.505 Y102.646 E.11536
G1 X108.007 Y102.646 E.02096
G1 X108.007 Y99.904 E.11536
G1 X107.508 Y99.904 E.02096
G1 X107.508 Y102.646 E.11536
G1 X107.01 Y102.646 E.02096
G1 X107.01 Y99.904 E.11536
G1 X106.512 Y99.904 E.02096
G1 X106.512 Y102.646 E.11536
G1 X106.013 Y102.646 E.02096
G1 X106.013 Y99.904 E.11536
G1 X105.515 Y99.904 E.02096
G1 X105.515 Y102.646 E.11536
G1 X105.017 Y102.646 E.02096
G1 X105.017 Y99.904 E.11536
G1 X104.518 Y99.904 E.02096
G1 X104.518 Y102.646 E.11536
G1 X104.02 Y102.646 E.02096
G1 X104.02 Y99.904 E.11536
G1 X103.522 Y99.904 E.02096
G1 X103.522 Y102.646 E.11536
G1 X103.023 Y102.646 E.02096
G1 X103.023 Y99.904 E.11536
G1 X102.525 Y99.904 E.02096
G1 X102.525 Y102.646 E.11536
G1 X102.027 Y102.646 E.02096
G1 X102.027 Y99.904 E.11536
G1 X101.528 Y99.904 E.02096
G1 X101.528 Y102.646 E.11536
G1 X101.03 Y102.646 E.02096
G1 X101.03 Y99.904 E.11536
G1 X100.532 Y99.904 E.02096
