; HEADER_BLOCK_START
; generated by AnycubicSlicerNext 1.3.7.3 on 2026-02-17 at 15:37:44
; total layer number: 130
; filament_density: 1.23
; filament_diameter: 1.75
; max_z_height: 26.04
; exclude_object: 0
; model_instances: 1
; source_info: {"models":[{"file_source":0,"mo_file_id":-1,"name":"stand.stl_id_0_copy_0"}],"models_from":0,"plate_index":1,"slice_paras_process":2,"software_version":"AnycubicSlicerNext 1.3.7.3 20250928154607"}
; HEADER_BLOCK_END

; THUMBNAIL_BLOCK_START
; THUMBNAIL_BLOCK_END

; external perimeters extrusion width = 0.42mm
; perimeters extrusion width = 0.45mm
; infill extrusion width = 0.45mm
; solid infill extrusion width = 0.42mm
; top infill extrusion width = 0.42mm
; first layer extrusion width = 0.50mm

; EXECUTABLE_BLOCK_START
M201 X20000 Y20000 Z5000 E20000 ; sets machine_max_acceleration_x, y, z, e (mm/sec^2)
M203 X500 Y500 Z16 E80 ; sets machine_max_speed_x, y, z, e (mm/sec)
M204 P20000 R20000 T9000 ; sets machine_max_acceleration(mm/sec^2) M204 P[print] R[retract] T[travel]
M205 X20.00 Y20.00 Z8.00 E20.00 ; sets the jerk limits, mm/sec
;TYPE:Custom
G90 ;Use absolute coordinates
M83 ;Extruder relative mode
M140 S65 ;Set bed temp
M190 S65 ;Wait for bed temp
M104 S230 ;Set extruder temp
M109 S230 ;Wait for extruder temp
G28 ;Move X/Y/Z to min endstops
G1 Z0.28 ;Lift nozzle a bit
G92 E0 ;Specify current extruder position as zero
G1 Y222 F1800 ;Move Y to purge point
G1 X180 E25 F500 ;Extrude 25mm of filament in a 5cm line
G92 E0 ;Zero the extruded length again
G1 E-0.2 F500 ;Retract a little
G1 X181 F4000 ;Quickly wipe away from the filament line
M117
M900 K0.07
G90
G21
M83 ; use relative distances for extrusion
; filament start gcode
M900 K0.05; Override pressure advance value
M106 S0
;LAYER_CHANGE
;Z:0.24
;HEIGHT:0.24
G1 E-2 F2400
; layer num/total_layer_count: 1/130
M204 S500
; printing object "stand.stl" id:0 copy 0
G1 X122.287 Y122.287 F18000
G1 Z.24
G1 E2 F2400
;TYPE:Inner wall
;WIDTH:0.5
G1 F2700
G1 X97.713 Y122.287 E1.03369
G1 X97.713 Y97.713 E1.03369
G1 X122.287 Y97.713 E1.03369
G1 X122.287 Y122.227 E1.03116
G1 X122.735 Y122.735 F18000
;TYPE:Outer wall
G1 F2700
G1 X97.265 Y122.735 E1.07142
G1 X97.265 Y97.265 E1.07142
G1 X122.735 Y97.265 E1.07142
G1 X122.735 Y122.675 E1.0689
G1 E-1.11111 F2400
;WIPE_START
G1 F2700
G1 X121.735 Y122.677 E-.88889
;WIPE_END
G1 X121.236 Y97.848 F18000
G1 E2 F2400
;TYPE:Bottom surface
;WIDTH:0.504587
G1 F2700
G1 X121.95 Y98.563 E.04294
G1 X121.95 Y99.203 E.02723
G1 X120.797 Y98.05 E.06932
G1 X120.156 Y98.05 E.02723
G1 X121.95 Y99.844 E.10783
G1 X121.95 Y100.485 E.02723
G1 X119.515 Y98.05 E.14634
G1 X118.874 Y98.05 E.02723
G1 X121.95 Y101.126 E.18485
G1 X121.95 Y101.766 E.02723
G1 X118.234 Y98.05 E.22336
G1 X117.593 Y98.05 E.02723
G1 X121.95 Y102.407 E.26187
G1 X121.95 Y103.048 E.02723
G1 X116.952 Y98.05 E.30037
G1 X116.311 Y98.05 E.02723
G1 X121.95 Y103.689 E.33888
G1 X121.95 Y104.329 E.02723
G1 X115.671 Y98.05 E.37739
G1 X115.03 Y98.05 E.02723
G1 X121.95 Y104.97 E.4159
G1 X121.95 Y105.611 E.02723
G1 X114.389 Y98.05 E.45441
G1 X113.748 Y98.05 E.02723
G1 X121.95 Y106.252 E.49292
G1 X121.95 Y106.892 E.02723
G1 X113.108 Y98.05 E.53143
G1 X112.467 Y98.05 E.02723
G1 X121.95 Y107.533 E.56993
G1 X121.95 Y108.174 E.02723
G1 X111.826 Y98.05 E.60844
G1 X111.185 Y98.05 E.02723
G1 X121.95 Y108.815 E.64695
G1 X121.95 Y109.455 E.02723
G1 X110.545 Y98.05 E.68546
G1 X109.904 Y98.05 E.02723
G1 X121.95 Y110.096 E.72397
G1 X121.95 Y110.737 E.02723
G1 X109.263 Y98.05 E.76248
G1 X108.622 Y98.05 E.02723
G1 X121.95 Y111.378 E.80099
G1 X121.95 Y112.018 E.02723
G1 X107.982 Y98.05 E.8395
G1 X107.341 Y98.05 E.02723
G1 X121.95 Y112.659 E.878
G1 X121.95 Y113.3 E.02723
G1 X106.7 Y98.05 E.91651
G1 X106.059 Y98.05 E.02723
G1 X121.95 Y113.941 E.95502
G1 X121.95 Y114.581 E.02723
G1 X105.419 Y98.05 E.99353
G1 X104.778 Y98.05 E.02723
G1 X121.95 Y115.222 E1.03204
G1 X121.95 Y115.863 E.02723
G1 X104.137 Y98.05 E1.07055
G1 X103.496 Y98.05 E.02723
G1 X121.95 Y116.504 E1.10906
G1 X121.95 Y117.145 E.02723
G1 X102.855 Y98.05 E1.14757
G1 X102.215 Y98.05 E.02723
G1 X121.95 Y117.785 E1.18607
G1 X121.95 Y118.426 E.02723
G1 X101.574 Y98.05 E1.22458
G1 X100.933 Y98.05 E.02723
G1 X121.95 Y119.067 E1.26309
G1 X121.95 Y119.708 E.02723
G1 X100.292 Y98.05 E1.3016
G1 X99.652 Y98.05 E.02723
G1 X121.95 Y120.348 E1.34011
G1 X121.95 Y120.989 E.02723
G1 X99.011 Y98.05 E1.37862
G1 X98.37 Y98.05 E.02723
G1 X121.95 Y121.63 E1.41713
G1 X121.95 Y121.95 E.01361
G1 X121.63 Y121.95 E.01362
G1 X98.05 Y98.37 E1.41712
G1 X98.05 Y99.011 E.02723
G1 X120.989 Y121.95 E1.37861
G1 X120.348 Y121.95 E.02723
G1 X98.05 Y99.652 E1.3401
G1 X98.05 Y100.293 E.02723
G1 X119.707 Y121.95 E1.3016
G1 X119.067 Y121.95 E.02723
G1 X98.05 Y100.933 E1.26309
G1 X98.05 Y101.574 E.02723
G1 X118.426 Y121.95 E1.22458
G1 X117.785 Y121.95 E.02723
G1 X98.05 Y102.215 E1.18607
G1 X98.05 Y102.856 E.02723
G1 X117.144 Y121.95 E1.14756
G1 X116.504 Y121.95 E.02723
G1 X98.05 Y103.496 E1.10905
G1 X98.05 Y104.137 E.02723
G1 X115.863 Y121.95 E1.07054
G1 X115.222 Y121.95 E.02723
G1 X98.05 Y104.778 E1.03203
G1 X98.05 Y105.419 E.02723
G1 X114.581 Y121.95 E.99353
G1 X113.941 Y121.95 E.02723
G1 X98.05 Y106.059 E.95502
G1 X98.05 Y106.7 E.02723
G1 X113.3 Y121.95 E.91651
G1 X112.659 Y121.95 E.02723
G1 X98.05 Y107.341 E.878
G1 X98.05 Y107.982 E.02723
G1 X112.018 Y121.95 E.83949
G1 X111.378 Y121.95 E.02723
G1 X98.05 Y108.622 E.80098
G1 X98.05 Y109.263 E.02723
G1 X110.737 Y121.95 E.76247
G1 X110.096 Y121.95 E.02723
G1 X98.05 Y109.904 E.72397
G1 X98.05 Y110.545 E.02723
G1 X109.455 Y121.95 E.68546
G1 X108.815 Y121.95 E.02723
G1 X98.05 Y111.185 E.64695
G1 X98.05 Y111.826 E.02723
G1 X108.174 Y121.95 E.60844
G1 X107.533 Y121.95 E.02723
G1 X98.05 Y112.467 E.56993
G1 X98.05 Y113.108 E.02723
G1 X106.892 Y121.95 E.53142
G1 X106.252 Y121.95 E.02723
G1 X98.05 Y113.748 E.49291
G1 X98.05 Y114.389 E.02723
G1 X105.611 Y121.95 E.4544
G1 X104.97 Y121.95 E.02723
G1 X98.05 Y115.03 E.4159
G1 X98.05 Y115.671 E.02723
G1 X104.329 Y121.95 E.37739
G1 X103.689 Y121.95 E.02723
G1 X98.05 Y116.311 E.33888
G1 X98.05 Y116.952 E.02723
G1 X103.048 Y121.95 E.30037
G1 X102.407 Y121.95 E.02723
G1 X98.05 Y117.593 E.26186
G1 X98.05 Y118.234 E.02723
G1 X101.766 Y121.95 E.22335
G1 X101.126 Y121.95 E.02723
G1 X98.05 Y118.874 E.18484
G1 X98.05 Y119.515 E.02723
G1 X100.485 Y121.95 E.14634
G1 X99.844 Y121.95 E.02723
G1 X98.05 Y120.156 E.10783
G1 X98.05 Y120.797 E.02723
G1 X99.203 Y121.95 E.06932
G1 X98.563 Y121.95 E.02723
G1 X97.848 Y121.236 E.04294
; stop printing object stand.stl id:0 copy 0
;LAYER_CHANGE
;Z:0.44
;HEIGHT:0.2
G1 E-1.11111 F2400
;WIPE_START
G1 F2700
G1 X98.555 Y121.943 E-.88889
;WIPE_END
; layer num/total_layer_count: 2/130
M204 S10000
M140 S65 ; set bed temperature
; printing object "stand.stl" id:0 copy 0
M204 S6000
G1 X122.398 Y122.398 Z.44 F18000
G1 E2 F2400
M204 S10000
;TYPE:Inner wall
;WIDTH:0.45
G1 F5895.652
G1 X97.602 Y122.398 E.78895
G1 X97.602 Y97.602 E.78895
G1 X122.398 Y97.602 E.78895
G1 X122.398 Y122.338 E.78704
M204 S6000
G1 X122.79 Y122.79 F18000
M204 S5000
;TYPE:Outer wall
;WIDTH:0.42
G1 F6364.704
G1 X97.21 Y122.79 E.75392
G1 X97.21 Y97.21 E.75392
G1 X122.79 Y97.21 E.75392
G1 X122.79 Y122.73 E.75215
G1 E-1.62292 F2400
;WIPE_START
G1 F6364.704
G1 X121.79 Y122.732 E-.37708
;WIPE_END
M204 S6000
G1 X120.416 Y122.006 F18000
G1 E2 F2400
M204 S10000
;TYPE:Internal solid infill
;WIDTH:0.419999
G1 F6364.714
G1 X122.006 Y122.006 E.04687
G1 X122.006 Y120.416 E.04687
G1 X120.458 Y121.963 E.06452
M204 S6000
G1 X121.575 Y121.48 F18000
M204 S10000
;WIDTH:0.597418
G1 F4328.239
G1 X121.505 Y121.48 E.003
G1 X121.471 Y121.54 E.003
G1 X121.505 Y121.6 E.003
G1 X121.579 Y121.592 E.00322
M204 S6000
G1 X122.234 Y119.706 F18000
M204 S10000
;WIDTH:0.420876
G1 F6349.945
G1 X119.876 Y122.065 E.09852
G1 X119.342 Y122.065 E.01579
G1 X122.065 Y119.342 E.11376
G1 X122.065 Y118.807 E.01579
G1 X118.807 Y122.065 E.13609
G1 X118.273 Y122.065 E.01579
G1 X122.065 Y118.273 E.15843
G1 X122.065 Y117.738 E.01579
G1 X117.738 Y122.065 E.18076
G1 X117.204 Y122.065 E.01579
G1 X122.065 Y117.204 E.20309
G1 X122.065 Y116.669 E.01579
G1 X116.669 Y122.065 E.22542
G1 X116.135 Y122.065 E.01579
G1 X122.065 Y116.135 E.24775
G1 X122.065 Y115.6 E.01579
G1 X115.6 Y122.065 E.27008
G1 X115.066 Y122.065 E.01579
G1 X122.065 Y115.066 E.29241
G1 X122.065 Y114.531 E.01579
G1 X114.531 Y122.065 E.31474
G1 X113.996 Y122.065 E.01579
G1 X122.065 Y113.996 E.33707
G1 X122.065 Y113.462 E.01579
G1 X113.462 Y122.065 E.3594
G1 X112.927 Y122.065 E.01579
G1 X122.065 Y112.927 E.38173
G1 X122.065 Y112.393 E.01579
G1 X112.393 Y122.065 E.40406
G1 X111.858 Y122.065 E.01579
G1 X122.065 Y111.858 E.4264
G1 X122.065 Y111.324 E.01579
G1 X111.324 Y122.065 E.44873
G1 X110.789 Y122.065 E.01579
G1 X122.065 Y110.789 E.47106
G1 X122.065 Y110.255 E.01579
G1 X110.255 Y122.065 E.49339
G1 X109.72 Y122.065 E.01579
G1 X122.065 Y109.72 E.51572
G1 X122.065 Y109.186 E.01579
G1 X109.186 Y122.065 E.53805
G1 X108.651 Y122.065 E.01579
G1 X122.065 Y108.651 E.56038
G1 X122.065 Y108.117 E.01579
G1 X108.117 Y122.065 E.58271
G1 X107.582 Y122.065 E.01579
G1 X122.065 Y107.582 E.60504
G1 X122.065 Y107.048 E.01579
G1 X107.048 Y122.065 E.62737
G1 X106.513 Y122.065 E.01579
G1 X122.065 Y106.513 E.6497
G1 X122.065 Y105.979 E.01579
G1 X105.979 Y122.065 E.67203
G1 X105.444 Y122.065 E.01579
G1 X122.065 Y105.444 E.69436
G1 X122.065 Y104.91 E.01579
G1 X104.91 Y122.065 E.7167
G1 X104.375 Y122.065 E.01579
G1 X122.065 Y104.375 E.73903
G1 X122.065 Y103.841 E.01579
G1 X103.841 Y122.065 E.76136
G1 X103.306 Y122.065 E.01579
G1 X122.065 Y103.306 E.78369
G1 X122.065 Y102.772 E.01579
G1 X102.772 Y122.065 E.80602
G1 X102.237 Y122.065 E.01579
G1 X122.065 Y102.237 E.82835
G1 X122.065 Y101.703 E.01579
G1 X101.703 Y122.065 E.85068
G1 X101.168 Y122.065 E.01579
G1 X122.065 Y101.168 E.87301
G1 X122.065 Y100.634 E.01579
G1 X100.634 Y122.065 E.89534
G1 X100.099 Y122.065 E.01579
G1 X122.065 Y100.099 E.91767
G1 X122.065 Y99.565 E.01579
G1 X99.565 Y122.065 E.94
G1 X99.03 Y122.065 E.01579
G1 X122.065 Y99.03 E.96233
G1 X122.065 Y98.496 E.01579
G1 X98.496 Y122.065 E.98467
G1 X97.961 Y122.065 E.01579
G1 X122.065 Y97.961 E1.007
G1 X122.065 Y97.935 E.00076
G1 X121.556 Y97.935 E.01503
G1 X97.935 Y121.556 E.98682
G1 X97.935 Y121.021 E.01579
G1 X121.021 Y97.935 E.96449
G1 X120.487 Y97.935 E.01579
G1 X97.935 Y120.487 E.94216
G1 X97.935 Y119.952 E.01579
G1 X119.952 Y97.935 E.91983
G1 X119.418 Y97.935 E.01579
G1 X97.935 Y119.418 E.8975
G1 X97.935 Y118.883 E.01579
G1 X118.883 Y97.935 E.87517
G1 X118.349 Y97.935 E.01579
G1 X97.935 Y118.349 E.85284
G1 X97.935 Y117.814 E.01579
G1 X117.814 Y97.935 E.83051
G1 X117.28 Y97.935 E.01579
G1 X97.935 Y117.28 E.80818
G1 X97.935 Y116.745 E.01579
G1 X116.745 Y97.935 E.78585
G1 X116.211 Y97.935 E.01579
G1 X97.935 Y116.211 E.76352
G1 X97.935 Y115.676 E.01579
G1 X115.676 Y97.935 E.74119
G1 X115.142 Y97.935 E.01579
G1 X97.935 Y115.142 E.71885
G1 X97.935 Y114.607 E.01579
G1 X114.607 Y97.935 E.69652
G1 X114.073 Y97.935 E.01579
G1 X97.935 Y114.073 E.67419
G1 X97.935 Y113.538 E.01579
G1 X113.538 Y97.935 E.65186
G1 X113.004 Y97.935 E.01579
G1 X97.935 Y113.004 E.62953
G1 X97.935 Y112.469 E.01579
G1 X112.469 Y97.935 E.6072
G1 X111.935 Y97.935 E.01579
G1 X97.935 Y111.935 E.58487
G1 X97.935 Y111.4 E.01579
G1 X111.4 Y97.935 E.56254
G1 X110.866 Y97.935 E.01579
G1 X97.935 Y110.866 E.54021
G1 X97.935 Y110.331 E.01579
G1 X110.331 Y97.935 E.51788
G1 X109.797 Y97.935 E.01579
G1 X97.935 Y109.797 E.49555
G1 X97.935 Y109.262 E.01579
G1 X109.262 Y97.935 E.47322
G1 X108.728 Y97.935 E.01579
G1 X97.935 Y108.728 E.45088
G1 X97.935 Y108.193 E.01579
G1 X108.193 Y97.935 E.42855
G1 X107.659 Y97.935 E.01579
G1 X97.935 Y107.659 E.40622
G1 X97.935 Y107.124 E.01579
G1 X107.124 Y97.935 E.38389
G1 X106.59 Y97.935 E.01579
G1 X97.935 Y106.59 E.36156
G1 X97.935 Y106.055 E.01579
G1 X106.055 Y97.935 E.33923
G1 X105.521 Y97.935 E.01579
G1 X97.935 Y105.521 E.3169
G1 X97.935 Y104.986 E.01579
G1 X104.986 Y97.935 E.29457
G1 X104.452 Y97.935 E.01579
G1 X97.935 Y104.452 E.27224
G1 X97.935 Y103.917 E.01579
G1 X103.917 Y97.935 E.24991
G1 X103.383 Y97.935 E.01579
G1 X97.935 Y103.383 E.22758
G1 X97.935 Y102.848 E.01579
G1 X102.848 Y97.935 E.20525
G1 X102.314 Y97.935 E.01579
G1 X97.935 Y102.314 E.18292
G1 X97.935 Y101.779 E.01579
G1 X101.779 Y97.935 E.16058
G1 X101.245 Y97.935 E.01579
G1 X97.935 Y101.245 E.13825
G1 X97.935 Y100.71 E.01579
G1 X100.71 Y97.935 E.11592
G1 X100.176 Y97.935 E.01579
G1 X97.935 Y100.176 E.09359
G1 X97.935 Y99.641 E.01579
G1 X99.641 Y97.935 E.07126
G1 X99.107 Y97.935 E.01579
G1 X97.935 Y99.107 E.04893
G1 X97.935 Y98.572 E.01579
G1 X98.742 Y97.766 E.03369
M204 S6000
G1 X98.03 Y97.962 F18000
M204 S10000
;WIDTH:0.442592
G1 F6004.924
G1 X97.955 Y98.005 E.0027
G1 X98.022 Y98.044 E.00239
; stop printing object stand.stl id:0 copy 0
;LAYER_CHANGE
;Z:0.64
;HEIGHT:0.2
G1 E-1.93484 F2400
;WIPE_START
G1 F6004.924
G1 X97.955 Y98.005 E-.03057
G1 X98.03 Y97.962 E-.03458
;WIPE_END
; layer num/total_layer_count: 3/130
; printing object "stand.stl" id:0 copy 0
M204 S6000
G1 X122.398 Y122.398 Z.64 F18000
G1 E2 F2400
M204 S10000
;TYPE:Inner wall
;WIDTH:0.45
G1 F5895.652
G1 X97.602 Y122.398 E.78895
G1 X97.602 Y97.602 E.78895
G1 X122.398 Y97.602 E.78895
G1 X122.398 Y122.338 E.78704
M204 S6000
G1 X122.79 Y122.79 F18000
M204 S5000
;TYPE:Outer wall
;WIDTH:0.42
G1 F6364.704
G1 X97.21 Y122.79 E.75392
G1 X97.21 Y97.21 E.75392
G1 X122.79 Y97.21 E.75392
G1 X122.79 Y122.73 E.75215
G1 E-1.62292 F2400
;WIPE_START
G1 F6364.704
G1 X121.79 Y122.732 E-.37708
;WIPE_END
M204 S6000
G1 X98.03 Y121.951 F18000
G1 E2 F2400
M204 S10000
;TYPE:Internal solid infill
;WIDTH:0.442592
G1 F6004.924
G1 X97.955 Y121.995 E.0027
G1 X98.022 Y122.033 E.00239
M204 S6000
G1 X119.706 Y97.766 F18000
M204 S10000
;WIDTH:0.420876
G1 F6349.945
G1 X122.065 Y100.124 E.09852
G1 X122.065 Y100.658 E.01579
G1 X119.342 Y97.935 E.11376
G1 X118.807 Y97.935 E.01579
G1 X122.065 Y101.193 E.13609
G1 X122.065 Y101.727 E.01579
G1 X118.273 Y97.935 E.15843
G1 X117.738 Y97.935 E.01579
G1 X122.065 Y102.262 E.18076
G1 X122.065 Y102.796 E.01579
G1 X117.204 Y97.935 E.20309
G1 X116.669 Y97.935 E.01579
G1 X122.065 Y103.331 E.22542
G1 X122.065 Y103.865 E.01579
G1 X116.135 Y97.935 E.24775
G1 X115.6 Y97.935 E.01579
G1 X122.065 Y104.4 E.27008
G1 X122.065 Y104.934 E.01579
G1 X115.066 Y97.935 E.29241
G1 X114.531 Y97.935 E.01579
G1 X122.065 Y105.469 E.31474
G1 X122.065 Y106.004 E.01579
G1 X113.996 Y97.935 E.33707
G1 X113.462 Y97.935 E.01579
G1 X122.065 Y106.538 E.3594
G1 X122.065 Y107.073 E.01579
G1 X112.927 Y97.935 E.38173
G1 X112.393 Y97.935 E.01579
G1 X122.065 Y107.607 E.40406
G1 X122.065 Y108.142 E.01579
G1 X111.858 Y97.935 E.4264
G1 X111.324 Y97.935 E.01579
G1 X122.065 Y108.676 E.44873
G1 X122.065 Y109.211 E.01579
G1 X110.789 Y97.935 E.47106
G1 X110.255 Y97.935 E.01579
G1 X122.065 Y109.745 E.49339
G1 X122.065 Y110.28 E.01579
G1 X109.72 Y97.935 E.51572
G1 X109.186 Y97.935 E.01579
G1 X122.065 Y110.814 E.53805
G1 X122.065 Y111.349 E.01579
G1 X108.651 Y97.935 E.56038
G1 X108.117 Y97.935 E.01579
G1 X122.065 Y111.883 E.58271
G1 X122.065 Y112.418 E.01579
G1 X107.582 Y97.935 E.60504
G1 X107.048 Y97.935 E.01579
G1 X122.065 Y112.952 E.62737
G1 X122.065 Y113.487 E.01579
G1 X106.513 Y97.935 E.6497
G1 X105.979 Y97.935 E.01579
G1 X122.065 Y114.021 E.67203
G1 X122.065 Y114.556 E.01579
G1 X105.444 Y97.935 E.69436
G1 X104.91 Y97.935 E.01579
G1 X122.065 Y115.09 E.7167
G1 X122.065 Y115.625 E.01579
G1 X104.375 Y97.935 E.73903
G1 X103.841 Y97.935 E.01579
G1 X122.065 Y116.159 E.76136
G1 X122.065 Y116.694 E.01579
G1 X103.306 Y97.935 E.78369
G1 X102.772 Y97.935 E.01579
G1 X122.065 Y117.228 E.80602
G1 X122.065 Y117.763 E.01579
G1 X102.237 Y97.935 E.82835
G1 X101.703 Y97.935 E.01579
G1 X122.065 Y118.297 E.85068
G1 X122.065 Y118.832 E.01579
G1 X101.168 Y97.935 E.87301
G1 X100.634 Y97.935 E.01579
G1 X122.065 Y119.366 E.89534
G1 X122.065 Y119.901 E.01579
G1 X100.099 Y97.935 E.91767
G1 X99.565 Y97.935 E.01579
G1 X122.065 Y120.435 E.94
G1 X122.065 Y120.97 E.01579
G1 X99.03 Y97.935 E.96233
G1 X98.496 Y97.935 E.01579
