; HEADER_BLOCK_START
; generated by AnycubicSlicerNext 1.3.7.3 on 2026-02-17 at 12:11:16
; total layer number: 70
; filament_density: 1.23
; filament_diameter: 1.75
; max_z_height: 14.04
; exclude_object: 0
; model_instances: 1
; source_info: {"models":[{"file_source":0,"mo_file_id":-1,"name":"stripe-bender-thick.stl_id_0_copy_0"}],"models_from":0,"plate_index":1,"slice_paras_process":2,"software_version":"AnycubicSlicerNext 1.3.7.3 20250928154607"}
; HEADER_BLOCK_END

; THUMBNAIL_BLOCK_START
; THUMBNAIL_BLOCK_END

; external perimeters extrusion width = 0.42mm
; perimeters extrusion width = 0.45mm
; infill extrusion width = 0.45mm
; solid infill extrusion width = 0.42mm
; top infill extrusion width = 0.42mm
; first layer extrusion width = 0.50mm

; EXECUTABLE_BLOCK_START
M201 X20000 Y20000 Z5000 E20000 ; sets machine_max_acceleration_x, y, z, e (mm/sec^2)
M203 X500 Y500 Z16 E80 ; sets machine_max_speed_x, y, z, e (mm/sec)
M204 P20000 R20000 T9000 ; sets machine_max_acceleration(mm/sec^2) M204 P[print] R[retract] T[travel]
M205 X20.00 Y20.00 Z8.00 E20.00 ; sets the jerk limits, mm/sec
;TYPE:Custom
G90 ;Use absolute coordinates
M83 ;Extruder relative mode
M140 S65 ;Set bed temp
M190 S65 ;Wait for bed temp
M104 S230 ;Set extruder temp
M109 S230 ;Wait for extruder temp
G28 ;Move X/Y/Z to min endstops
G1 Z0.28 ;Lift nozzle a bit
G92 E0 ;Specify current extruder position as zero
G1 Y222 F1800 ;Move Y to purge point
G1 X180 E25 F500 ;Extrude 25mm of filament in a 5cm line
G92 E0 ;Zero the extruded length again
G1 E-0.2 F500 ;Retract a little
G1 X181 F4000 ;Quickly wipe away from the filament line
M117
M900 K0.07
G90
G21
M83 ; use relative distances for extrusion
; filament start gcode
M900 K0.05; Override pressure advance value
M106 S0
;LAYER_CHANGE
;Z:0.24
;HEIGHT:0.24
G1 E-2 F2400
; layer num/total_layer_count: 1/70
M204 S500
; printing object "stripe-bender-thick.stl" id:0 copy 0
G1 X19.828 Y84.081 F18000
G1 Z.24
G1 E2 F2400
;TYPE:Brim
;WIDTH:0.5
G1 F2700
G1 X20.571 Y83.918 E.03201
G1 X21.509 Y83.845 E.03956
G1 X198.493 Y83.845 E7.44502
G1 X199.262 Y83.894 E.03242
G1 X200.012 Y84.038 E.03212
G1 X200.738 Y84.275 E.03212
G1 X201.432 Y84.603 E.03228
G1 X202.16 Y85.061 E.03619
G1 X202.746 Y85.549 E.03209
G1 X203.266 Y86.108 E.03212
G1 X203.712 Y86.728 E.03212
G1 X204.076 Y87.398 E.03206
G1 X204.404 Y88.276 E.03941
G1 X204.582 Y89.071 E.03431
G1 X204.655 Y90.009 E.03954
G1 X204.655 Y104.339 E.60283
G1 X204.606 Y105.108 E.03242
G1 X204.462 Y105.859 E.03212
G1 X204.225 Y106.584 E.03212
G1 X203.897 Y107.278 E.03228
G1 X203.439 Y108.006 E.03619
G1 X202.951 Y108.592 E.03209
G1 X202.392 Y109.113 E.03212
G1 X201.772 Y109.559 E.03212
G1 X201.321 Y109.804 E.0216
G1 X201.221 Y109.913 E.00621
G1 X201.211 Y110.06 E.00621
G1 X201.332 Y110.204 E.00788
G1 X201.436 Y110.253 E.00484
G1 X202.08 Y110.663 E.03212
G1 X202.668 Y111.152 E.03216
G1 X203.14 Y111.648 E.02879
G1 X203.609 Y112.254 E.03225
G1 X203.998 Y112.911 E.03212
G1 X204.3 Y113.613 E.03212
G1 X204.511 Y114.346 E.03212
G1 X204.629 Y115.103 E.03221
G1 X204.655 Y115.659 E.02341
G1 X204.655 Y129.993 E.60298
G1 X204.606 Y130.762 E.03242
G1 X204.462 Y131.512 E.03212
G1 X204.225 Y132.238 E.03212
G1 X203.897 Y132.932 E.03228
G1 X203.439 Y133.66 E.03619
G1 X202.951 Y134.246 E.03209
G1 X202.392 Y134.766 E.03212
G1 X201.772 Y135.212 E.03212
G1 X201.103 Y135.576 E.03204
G1 X200.172 Y135.919 E.04171
G1 X199.429 Y136.082 E.03201
G1 X198.491 Y136.155 E.03956
G1 X21.507 Y136.155 E7.44502
G1 X20.738 Y136.106 E.03242
G1 X19.988 Y135.962 E.03212
G1 X19.262 Y135.725 E.03212
G1 X18.568 Y135.397 E.03228
G1 X17.84 Y134.939 E.03619
G1 X17.254 Y134.451 E.03209
G1 X16.734 Y133.892 E.03212
G1 X16.288 Y133.272 E.03212
G1 X15.924 Y132.603 E.03204
G1 X15.581 Y131.672 E.04171
G1 X15.418 Y130.929 E.03201
G1 X15.345 Y129.991 E.03956
G1 X15.345 Y90.007 E1.68198
G1 X15.394 Y89.238 E.03242
G1 X15.538 Y88.488 E.03212
G1 X15.775 Y87.762 E.03212
G1 X16.103 Y87.068 E.03228
G1 X16.561 Y86.34 E.03619
G1 X17.049 Y85.754 E.03209
G1 X17.608 Y85.234 E.03212
G1 X18.228 Y84.788 E.03212
G1 X18.897 Y84.424 E.03204
G1 X19.79 Y84.095 E.04003
G1 X19.945 Y84.517 F18000
G1 F2700
G1 X19.963 Y84.511 E.0008
G1 X20.646 Y84.362 E.02941
G1 X21.531 Y84.294 E.03733
G1 X198.483 Y84.294 E7.44366
G1 X199.214 Y84.341 E.03081
G1 X199.908 Y84.475 E.02974
G1 X200.58 Y84.696 E.02973
G1 X201.222 Y85.001 E.02993
G1 X201.888 Y85.42 E.03309
G1 X202.443 Y85.882 E.03037
G1 X202.913 Y86.387 E.02902
G1 X203.327 Y86.96 E.02974
G1 X203.67 Y87.593 E.03029
G1 X203.97 Y88.395 E.03602
G1 X204.136 Y89.129 E.03164
G1 X204.206 Y90.031 E.03808
G1 X204.206 Y104.321 E.60111
G1 X204.159 Y105.06 E.03117
G1 X204.025 Y105.754 E.02974
G1 X203.804 Y106.426 E.02973
G1 X203.499 Y107.069 E.02993
G1 X203.08 Y107.734 E.03309
G1 X202.63 Y108.277 E.02966
G1 X202.113 Y108.759 E.02974
G1 X201.54 Y109.173 E.02974
G1 X201.117 Y109.404 E.02029
G1 X200.981 Y109.51 E.00724
G1 X200.899 Y109.601 E.00515
G1 X200.798 Y109.773 E.00837
G1 X200.765 Y110.021 E.01053
G1 X200.793 Y110.214 E.00823
G1 X200.876 Y110.358 E.00698
G1 X200.979 Y110.481 E.00677
G1 X201.16 Y110.62 E.00958
G1 X201.822 Y111.032 E.03279
G1 X202.355 Y111.475 E.02917
G1 X202.803 Y111.946 E.02735
G1 X203.232 Y112.499 E.02946
G1 X203.593 Y113.108 E.02974
G1 X203.873 Y113.756 E.02974
G1 X204.074 Y114.452 E.03045
G1 X204.181 Y115.14 E.02932
G1 X204.206 Y115.672 E.02239
G1 X204.206 Y129.975 E.60164
G1 X204.161 Y130.697 E.03046
G1 X204.025 Y131.408 E.03045
G1 X203.804 Y132.08 E.02973
G1 X203.507 Y132.708 E.02926
G1 X203.08 Y133.388 E.03376
G1 X202.63 Y133.931 E.02966
G1 X202.113 Y134.413 E.02974
G1 X201.526 Y134.836 E.03045
G1 X200.908 Y135.17 E.02953
G1 X200.037 Y135.489 E.03903
G1 X199.354 Y135.638 E.02941
G1 X198.469 Y135.706 E.03733
G1 X21.525 Y135.706 E7.4433
G1 X20.786 Y135.659 E.03117
G1 X20.108 Y135.529 E.02902
G1 X19.436 Y135.31 E.02973
G1 X18.778 Y134.999 E.03065
G1 X18.097 Y134.57 E.03384
G1 X17.557 Y134.118 E.02962
G1 X17.087 Y133.613 E.02902
G1 X16.673 Y133.04 E.02974
G1 X16.33 Y132.408 E.03024
G1 X16.011 Y131.537 E.03903
G1 X15.862 Y130.854 E.02941
G1 X15.794 Y129.969 E.03733
G1 X15.794 Y90.025 E1.68026
G1 X15.839 Y89.303 E.03045
G1 X15.975 Y88.592 E.03045
G1 X16.196 Y87.92 E.02973
G1 X16.493 Y87.292 E.02926
G1 X16.92 Y86.612 E.03376
G1 X17.37 Y86.069 E.02966
G1 X17.887 Y85.587 E.02974
G1 X18.474 Y85.164 E.03045
G1 X19.092 Y84.83 E.02953
G1 X19.908 Y84.531 E.03655
G1 X20.062 Y84.954 F18000
G1 F2700
G1 X20.098 Y84.94 E.00161
G1 X20.721 Y84.806 E.02681
G1 X21.553 Y84.742 E.03512
G1 X198.464 Y84.743 E7.44193
G1 X199.165 Y84.789 E.02955
G1 X199.803 Y84.913 E.02735
G1 X200.421 Y85.117 E.02735
G1 X201.013 Y85.399 E.0276
G1 X201.616 Y85.779 E.03
G1 X202.14 Y86.215 E.02865
G1 X202.571 Y86.679 E.02665
G1 X202.941 Y87.192 E.02663
G1 X203.264 Y87.788 E.02851
G1 X203.536 Y88.515 E.03264
G1 X203.689 Y89.187 E.02897
G1 X203.758 Y90.054 E.0366
G1 X203.758 Y104.302 E.59937
G1 X203.711 Y105.012 E.0299
G1 X203.587 Y105.65 E.02734
G1 X203.383 Y106.267 E.02735
G1 X203.101 Y106.859 E.0276
G1 X202.721 Y107.463 E.03002
G1 X202.308 Y107.962 E.02723
G1 X201.834 Y108.407 E.02735
G1 X201.307 Y108.788 E.02736
G1 X200.833 Y109.057 E.0229
G1 X200.646 Y109.213 E.01029
G1 X200.507 Y109.383 E.00923
G1 X200.418 Y109.534 E.00736
G1 X200.352 Y109.727 E.00859
G1 X200.323 Y109.948 E.00936
G1 X200.348 Y110.268 E.01352
G1 X200.411 Y110.45 E.00808
G1 X200.483 Y110.574 E.00603
G1 X200.63 Y110.762 E.01002
G1 X200.93 Y111.006 E.01629
G1 X201.566 Y111.402 E.03152
G1 X202.042 Y111.798 E.02604
G1 X202.467 Y112.244 E.0259
G1 X202.856 Y112.745 E.02669
G1 X203.188 Y113.304 E.02736
G1 X203.447 Y113.9 E.02733
G1 X203.636 Y114.557 E.02876
G1 X203.733 Y115.178 E.02645
G1 X203.758 Y115.686 E.02137
G1 X203.758 Y129.956 E.6003
G1 X203.716 Y130.632 E.02849
G1 X203.591 Y131.287 E.02804
G1 X203.383 Y131.921 E.02806
G1 X203.108 Y132.499 E.02694
G1 X202.721 Y133.117 E.03068
G1 X202.308 Y133.616 E.02723
G1 X201.821 Y134.071 E.02805
G1 X201.279 Y134.459 E.02803
G1 X200.714 Y134.763 E.027
G1 X199.902 Y135.06 E.03636
G1 X199.279 Y135.194 E.02681
G1 X198.447 Y135.258 E.03513
G1 X21.544 Y135.258 E7.44158
G1 X20.835 Y135.211 E.02991
G1 X20.212 Y135.091 E.02666
G1 X19.61 Y134.895 E.02663
G1 X18.987 Y134.601 E.029
G1 X18.355 Y134.201 E.03147
G1 X17.873 Y133.797 E.02645
G1 X17.44 Y133.334 E.02667
G1 X17.059 Y132.808 E.02733
G1 X16.737 Y132.214 E.02843
G1 X16.44 Y131.402 E.03634
G1 X16.306 Y130.779 E.02681
G1 X16.242 Y129.947 E.03512
G1 X16.242 Y90.044 E1.67856
G1 X16.284 Y89.368 E.02848
G1 X16.409 Y88.713 E.02804
G1 X16.617 Y88.079 E.02806
G1 X16.892 Y87.501 E.02694
G1 X17.279 Y86.883 E.03068
G1 X17.692 Y86.384 E.02723
G1 X18.179 Y85.929 E.02805
G1 X18.721 Y85.541 E.02803
G1 X19.286 Y85.237 E.027
G1 X20.024 Y84.967 E.03307
G1 X20.178 Y85.39 F18000
G1 F2700
G1 X20.232 Y85.37 E.00241
G1 X20.795 Y85.25 E.02422
G1 X21.576 Y85.191 E.03294
G1 X198.445 Y85.191 E7.44019
G1 X199.116 Y85.236 E.02827
G1 X199.698 Y85.351 E.02495
G1 X200.245 Y85.531 E.02425
G1 X200.803 Y85.797 E.02599
G1 X201.345 Y86.138 E.02694
G1 X201.837 Y86.547 E.02692
G1 X202.218 Y86.958 E.02356
G1 X202.556 Y87.424 E.02424
G1 X202.858 Y87.983 E.02673
G1 X203.102 Y88.636 E.0293
G1 X203.242 Y89.245 E.0263
G1 X203.309 Y90.077 E.03511
G1 X203.309 Y104.283 E.5976
G1 X203.264 Y104.962 E.02863
G1 X203.149 Y105.544 E.02495
G1 X202.963 Y106.107 E.02496
G1 X202.703 Y106.649 E.02528
G1 X202.361 Y107.192 E.027
G1 X201.986 Y107.648 E.02482
G1 X201.554 Y108.054 E.02496
G1 X201.07 Y108.406 E.02516
G1 X200.539 Y108.718 E.02592
G1 X200.293 Y108.936 E.01383
G1 X200.117 Y109.162 E.01204
G1 X199.992 Y109.396 E.01119
G1 X199.906 Y109.677 E.01234
G1 X199.877 Y109.995 E.01345
G1 X199.9 Y110.291 E.01247
G1 X199.985 Y110.59 E.01308
G1 X200.092 Y110.793 E.00966
G1 X200.27 Y111.029 E.01241
G1 X200.643 Y111.35 E.02072
G1 X201.296 Y111.762 E.03248
G1 X201.729 Y112.121 E.02368
G1 X202.122 Y112.532 E.02388
G1 X202.479 Y112.992 E.02451
G1 X202.784 Y113.502 E.02499
G1 X203.021 Y114.044 E.0249
G1 X203.199 Y114.663 E.02707
G1 X203.285 Y115.217 E.02359
G1 X203.309 Y115.7 E.02034
G1 X203.309 Y129.938 E.59894
G1 X203.27 Y130.568 E.02654
G1 X203.153 Y131.183 E.02635
G1 X202.962 Y131.762 E.02563
G1 X202.71 Y132.29 E.02461
G1 X202.361 Y132.846 E.02764
G1 X201.986 Y133.301 E.02478
G1 X201.542 Y133.717 E.02561
G1 X201.034 Y134.082 E.02632
G1 X200.521 Y134.356 E.02447
G1 X199.768 Y134.63 E.03369
G1 X199.205 Y134.75 E.02422
G1 X198.424 Y134.809 E.03294
G1 X21.563 Y134.809 E7.43984
G1 X20.884 Y134.764 E.02865
G1 X20.333 Y134.657 E.02361
G1 X19.784 Y134.48 E.02425
G1 X19.197 Y134.203 E.02733
G1 X18.613 Y133.832 E.02908
G1 X18.176 Y133.465 E.02402
G1 X17.792 Y133.054 E.02362
G1 X17.444 Y132.576 E.02491
G1 X17.143 Y132.02 E.02659
G1 X16.87 Y131.268 E.03363
G1 X16.75 Y130.705 E.02422
G1 X16.691 Y129.925 E.03294
G1 X16.691 Y90.062 E1.67686
G1 X16.73 Y89.432 E.02653
G1 X16.847 Y88.817 E.02635
G1 X17.038 Y88.238 E.02563
G1 X17.29 Y87.71 E.02461
G1 X17.639 Y87.154 E.02764
G1 X18.014 Y86.699 E.02478
G1 X18.458 Y86.283 E.02561
G1 X18.966 Y85.918 E.02632
G1 X19.479 Y85.644 E.02447
G1 X20.14 Y85.404 E.0296
G1 X20.293 Y85.826 F18000
G1 F2700
G1 X20.365 Y85.8 E.00321
G1 X20.868 Y85.694 E.02163
G1 X21.598 Y85.639 E.03078
G1 X198.426 Y85.64 E7.43845
G1 X199.065 Y85.683 E.02698
G1 X199.575 Y85.784 E.02186
G1 X200.07 Y85.946 E.02188
G1 X200.579 Y86.187 E.02372
G1 X201.073 Y86.497 E.02453
G1 X201.533 Y86.88 E.02519
G1 X201.875 Y87.25 E.02118
G1 X202.17 Y87.657 E.02115
G1 X202.452 Y88.178 E.02494
G1 X202.668 Y88.757 E.02598
G1 X202.796 Y89.304 E.02364
G1 X202.861 Y90.1 E.03361
G1 X202.861 Y104.264 E.59579
G1 X202.817 Y104.912 E.02734
G1 X202.712 Y105.438 E.02254
G1 X202.542 Y105.947 E.02258
G1 X202.306 Y106.439 E.02297
G1 X202.002 Y106.922 E.02401
G1 X201.664 Y107.334 E.02242
G1 X201.274 Y107.702 E.02257
G1 X200.818 Y108.034 E.02368
G1 X200.323 Y108.325 E.02419
G1 X199.933 Y108.669 E.02185
G1 X199.718 Y108.958 E.01516
G1 X199.56 Y109.275 E.0149
G1 X199.459 Y109.645 E.01614
G1 X199.43 Y110.039 E.01663
G1 X199.472 Y110.425 E.0163
G1 X199.55 Y110.7 E.01204
G1 X199.74 Y111.071 E.01753
G1 X199.986 Y111.376 E.01649
G1 X200.411 Y111.734 E.02337
G1 X201.025 Y112.121 E.03052
G1 X201.417 Y112.445 E.02139
G1 X201.777 Y112.82 E.02186
G1 X202.103 Y113.239 E.02233
G1 X202.38 Y113.7 E.02263
G1 X202.594 Y114.189 E.02246
G1 X202.761 Y114.768 E.02536
G1 X202.837 Y115.256 E.02075
G1 X202.861 Y115.714 E.01932
G1 X202.861 Y129.92 E.59757
G1 X202.825 Y130.503 E.02458
G1 X202.72 Y131.062 E.02391
G1 X202.542 Y131.602 E.02392
G1 X202.313 Y132.08 E.0223
G1 X202.001 Y132.576 E.02464
G1 X201.664 Y132.987 E.02235
G1 X201.25 Y133.375 E.02389
G1 X200.789 Y133.704 E.02384
G1 X200.329 Y133.949 E.02191
G1 X199.635 Y134.2 E.03103
G1 X199.132 Y134.306 E.02163
G1 X198.402 Y134.361 E.03078
G1 X21.583 Y134.361 E7.4381
G1 X20.933 Y134.317 E.02738
G1 X20.437 Y134.22 E.02127
G1 X19.958 Y134.065 E.02117
G1 X19.407 Y133.805 E.02565
G1 X18.872 Y133.463 E.02668
G1 X18.491 Y133.144 E.02092
G1 X18.145 Y132.774 E.02131
G1 X17.83 Y132.343 E.02246
G1 X17.55 Y131.826 E.02473
G1 X17.3 Y131.135 E.03091
G1 X17.194 Y130.632 E.02163
G1 X17.139 Y129.903 E.03078
G1 X17.139 Y90.08 E1.67517
G1 X17.175 Y89.497 E.02458
G1 X17.28 Y88.938 E.02391
G1 X17.458 Y88.398 E.02392
G1 X17.687 Y87.92 E.0223
G1 X17.999 Y87.424 E.02464
G1 X18.336 Y87.013 E.02235
G1 X18.75 Y86.625 E.02389
G1 X19.211 Y86.296 E.02384
G1 X19.671 Y86.051 E.02191
G1 X20.256 Y85.84 E.02614
G1 X20.408 Y86.263 F18000
G1 F2700
G1 X20.497 Y86.231 E.00401
G1 X20.94 Y86.138 E.01904
G1 X21.619 Y86.088 E.02864
G1 X198.406 Y86.088 E7.43669
G1 X199.015 Y86.13 E.0257
G1 X199.47 Y86.221 E.0195
G1 X199.895 Y86.36 E.01883
G1 X200.356 Y86.578 E.02144
G1 X200.802 Y86.856 E.02211
G1 X201.23 Y87.212 E.02343
G1 X201.522 Y87.528 E.01811
G1 X201.785 Y87.889 E.01875
G1 X202.046 Y88.373 E.02315
G1 X202.235 Y88.878 E.02269
G1 X202.349 Y89.364 E.02098
G1 X202.412 Y90.124 E.03209
G1 X202.412 Y104.244 E.59396
G1 X202.37 Y104.861 E.02604
G1 X202.275 Y105.33 E.02012
G1 X202.122 Y105.785 E.02019
G1 X201.908 Y106.228 E.02067
G1 X201.632 Y106.666 E.02178
G1 X201.329 Y107.033 E.02004
G1 X200.993 Y107.351 E.01945
G1 X200.568 Y107.66 E.0221
G1 X200.017 Y107.997 E.02716
G1 X199.646 Y108.325 E.02084
G1 X199.365 Y108.681 E.0191
G1 X199.125 Y109.168 E.02285
G1 X199.011 Y109.624 E.01976
G1 X198.984 Y109.996 E.01568
G1 X199.025 Y110.464 E.01977
G1 X199.116 Y110.811 E.0151
G1 X199.399 Y111.362 E.02604
G1 X199.706 Y111.727 E.02005
G1 X200.179 Y112.118 E.02583
G1 X200.768 Y112.491 E.02932
G1 X201.117 Y112.78 E.01906
G1 X201.441 Y113.119 E.01974
G1 X201.737 Y113.5 E.02027
G1 X201.984 Y113.914 E.0203
G1 X202.174 Y114.351 E.02003
G1 X202.324 Y114.874 E.02289
G1 X202.39 Y115.295 E.01792
G1 X202.412 Y115.729 E.0183
G1 X202.412 Y129.902 E.5962
G1 X202.379 Y130.439 E.02265
G1 X202.282 Y130.958 E.0222
G1 X202.121 Y131.442 E.02144
G1 X201.915 Y131.87 E.01997
G1 X201.641 Y132.306 E.02169
G1 X201.342 Y132.673 E.01991
G1 X200.971 Y133.021 E.02139
G1 X200.544 Y133.326 E.02208
G1 X200.137 Y133.541 E.01936
G1 X199.503 Y133.769 E.02837
G1 X199.06 Y133.862 E.01904
G1 X198.381 Y133.912 E.02864
G1 X21.602 Y133.912 E7.43635
G1 X20.983 Y133.87 E.02611
G1 X20.557 Y133.786 E.01827
G1 X20.132 Y133.65 E.01879
G1 X19.617 Y133.407 E.02395
G1 X19.131 Y133.095 E.02426
G1 X18.794 Y132.812 E.01853
G1 X18.496 Y132.494 E.01833
G1 X18.215 Y132.111 E.01999
G1 X17.957 Y131.633 E.02285
G1 X17.731 Y131.003 E.02816
G1 X17.638 Y130.56 E.01904
G1 X17.588 Y129.881 E.02864
G1 X17.588 Y90.098 E1.6735
G1 X17.621 Y89.561 E.02264
G1 X17.718 Y89.042 E.0222
G1 X17.879 Y88.558 E.02144
G1 X18.085 Y88.13 E.01997
G1 X18.359 Y87.694 E.02169
G1 X18.658 Y87.327 E.01991
G1 X19.029 Y86.979 E.02139
G1 X19.456 Y86.674 E.02208
G1 X19.863 Y86.459 E.01936
G1 X20.37 Y86.277 E.02268
G1 X20.521 Y86.7 F18000
G1 F2700
G1 X20.629 Y86.662 E.00481
G1 X21.012 Y86.583 E.01646
G1 X21.641 Y86.536 E.02654
G1 X198.385 Y86.537 E7.43493
G1 X198.947 Y86.575 E.02368
G1 X199.363 Y86.658 E.01786
G1 X199.736 Y86.781 E.01653
G1 X200.134 Y86.969 E.01847
G1 X200.545 Y87.226 E.02043
