; HEADER_BLOCK_START
; generated by AnycubicSlicerNext 1.3.7.3 on 2026-02-17 at 13:37:38
; total layer number: 45
; filament_density: 1.23
; filament_diameter: 1.75
; max_z_height: 9.04
; exclude_object: 0
; model_instances: 1
; source_info: {"models":[{"file_source":0,"mo_file_id":-1,"name":"stripe-bender-opt.stl_id_0_copy_0"}],"models_from":0,"plate_index":1,"slice_paras_process":2,"software_version":"AnycubicSlicerNext 1.3.7.3 20250928154607"}
; HEADER_BLOCK_END

; THUMBNAIL_BLOCK_START
; THUMBNAIL_BLOCK_END

; external perimeters extrusion width = 0.42mm
; perimeters extrusion width = 0.45mm
; infill extrusion width = 0.45mm
; solid infill extrusion width = 0.42mm
; top infill extrusion width = 0.42mm
; first layer extrusion width = 0.50mm

; EXECUTABLE_BLOCK_START
M201 X20000 Y20000 Z5000 E20000 ; sets machine_max_acceleration_x, y, z, e (mm/sec^2)
M203 X500 Y500 Z16 E80 ; sets machine_max_speed_x, y, z, e (mm/sec)
M204 P20000 R20000 T9000 ; sets machine_max_acceleration(mm/sec^2) M204 P[print] R[retract] T[travel]
M205 X20.00 Y20.00 Z8.00 E20.00 ; sets the jerk limits, mm/sec
;TYPE:Custom
G90 ;Use absolute coordinates
M83 ;Extruder relative mode
M140 S65 ;Set bed temp
M190 S65 ;Wait for bed temp
M104 S230 ;Set extruder temp
M109 S230 ;Wait for extruder temp
G28 ;Move X/Y/Z to min endstops
G1 Z0.28 ;Lift nozzle a bit
G92 E0 ;Specify current extruder position as zero
G1 Y222 F1800 ;Move Y to purge point
G1 X180 E25 F500 ;Extrude 25mm of filament in a 5cm line
G92 E0 ;Zero the extruded length again
G1 E-0.2 F500 ;Retract a little
G1 X181 F4000 ;Quickly wipe away from the filament line
M117
M900 K0.07
G90
G21
M83 ; use relative distances for extrusion
; filament start gcode
M900 K0.05; Override pressure advance value
M106 S0
;LAYER_CHANGE
;Z:0.24
;HEIGHT:0.24
G1 E-2 F2400
; layer num/total_layer_count: 1/45
M204 S500
; printing object "stripe-bender-opt.stl" id:0 copy 0
G1 X195.791 Y102.474 F18000
G1 Z.24
G1 E2 F2400
;TYPE:Inner wall
;WIDTH:0.5
G1 F2700
G1 X195.421 Y102.174 E.02001
G1 X194.715 Y101.686 E.0361
G1 X193.965 Y101.26 E.03628
G1 X193.181 Y100.902 E.03627
G1 X192.368 Y100.614 E.03627
G1 X191.533 Y100.399 E.03627
G1 X190.683 Y100.257 E.03627
G1 X189.823 Y100.191 E.03627
G1 X188.961 Y100.201 E.03627
G1 X188.103 Y100.286 E.03627
G1 X187.256 Y100.446 E.03627
G1 X186.426 Y100.68 E.03627
G1 X185.62 Y100.985 E.03627
G1 X184.844 Y101.361 E.03627
G1 X184.11 Y101.799 E.03594
G1 X183.743 Y102.052 E.01878
G1 X183.079 Y102.578 E.03563
G1 X182.742 Y102.884 E.01912
G1 X182.159 Y103.487 E.03527
G1 X181.876 Y103.821 E.01846
G1 X181.607 Y104.168 E.01846
G1 X181.129 Y104.877 E.03594
G1 X180.716 Y105.624 E.03594
G1 X180.526 Y106.028 E.01878
G1 X180.217 Y106.817 E.03562
G1 X180.084 Y107.235 E.01846
G1 X179.97 Y107.659 E.01846
G1 X179.805 Y108.481 E.03527
G1 X179.744 Y108.932 E.01912
G1 X179.688 Y109.784 E.03596
G1 X179.707 Y110.646 E.03627
G1 X179.802 Y111.503 E.03626
G1 X179.968 Y112.333 E.0356
G1 X180.084 Y112.765 E.0188
G1 X180.217 Y113.183 E.01847
G1 X180.528 Y113.979 E.03595
G1 X180.912 Y114.751 E.03627
G1 X181.358 Y115.479 E.03594
G1 X181.616 Y115.844 E.01878
G1 X182.154 Y116.508 E.03594
G1 X182.753 Y117.128 E.03627
G1 X183.405 Y117.692 E.03627
G1 X184.097 Y118.193 E.03594
G1 X184.476 Y118.43 E.01878
G1 X185.228 Y118.836 E.03594
G1 X186.02 Y119.176 E.03627
G1 X186.832 Y119.444 E.03596
G1 X187.272 Y119.557 E.01912
G1 X188.103 Y119.714 E.03559
G1 X188.961 Y119.799 E.03627
G1 X189.816 Y119.809 E.03596
G1 X190.27 Y119.783 E.01912
G1 X191.11 Y119.681 E.03559
G1 X191.953 Y119.503 E.03627
G1 X192.771 Y119.253 E.03596
G1 X193.196 Y119.091 E.01912
G1 X193.965 Y118.74 E.0356
G1 X194.715 Y118.314 E.03628
G1 X195.421 Y117.826 E.0361
G1 X195.795 Y117.523 E.02024
G1 X195.787 Y125.287 E.32658
G1 X24.213 Y125.287 E7.21742
G1 X24.213 Y94.713 E1.28608
G1 X195.787 Y94.713 E7.21739
G1 X195.787 Y101.278 E.27615
G1 X195.79 Y102.414 E.04776
G1 X196.076 Y103.353 F18000
;TYPE:Outer wall
G1 F2700
G1 X195.471 Y102.792 E.03474
G1 X195.152 Y102.534 E.01725
G1 X194.477 Y102.066 E.03455
G1 X193.761 Y101.66 E.03461
G1 X193.013 Y101.318 E.03461
G1 X192.237 Y101.044 E.03461
G1 X191.44 Y100.838 E.03461
G1 X190.629 Y100.703 E.03461
G1 X189.809 Y100.64 E.03461
G1 X188.986 Y100.649 E.03461
G1 X188.167 Y100.73 E.03461
G1 X187.359 Y100.883 E.03461
G1 X186.567 Y101.106 E.03461
G1 X185.798 Y101.398 E.03461
G1 X185.057 Y101.756 E.03461
G1 X184.353 Y102.176 E.03449
G1 X184.01 Y102.413 E.01754
G1 X183.369 Y102.921 E.03438
G1 X183.054 Y103.206 E.01788
G1 X182.492 Y103.788 E.03404
G1 X182.224 Y104.104 E.01742
G1 X181.97 Y104.431 E.01743
G1 X181.512 Y105.111 E.03449
G1 X181.115 Y105.829 E.03449
G1 X180.938 Y106.206 E.01754
G1 X180.64 Y106.967 E.03438
G1 X180.514 Y107.362 E.01742
G1 X180.406 Y107.761 E.01742
G1 X180.247 Y108.555 E.03404
G1 X180.191 Y108.976 E.01788
G1 X180.137 Y109.794 E.0345
G1 X180.155 Y110.617 E.03461
G1 X180.245 Y111.435 E.03461
G1 X180.405 Y112.231 E.03415
G1 X180.514 Y112.638 E.01776
G1 X180.64 Y113.033 E.01743
G1 X180.939 Y113.797 E.03449
G1 X181.305 Y114.533 E.03461
G1 X181.733 Y115.233 E.03449
G1 X181.974 Y115.573 E.01754
G1 X182.49 Y116.21 E.03449
G1 X183.062 Y116.802 E.03461
G1 X183.684 Y117.34 E.03461
G1 X184.348 Y117.821 E.03449
G1 X184.702 Y118.042 E.01754
G1 X185.423 Y118.431 E.03449
G1 X186.179 Y118.757 E.03461
G1 X186.958 Y119.014 E.0345
G1 X187.369 Y119.119 E.01788
G1 X188.167 Y119.27 E.03415
G1 X188.986 Y119.351 E.03461
G1 X189.806 Y119.36 E.0345
G1 X190.23 Y119.336 E.01788
G1 X191.036 Y119.238 E.03415
G1 X191.841 Y119.068 E.03461
G1 X192.625 Y118.828 E.0345
G1 X193.022 Y118.677 E.01788
G1 X193.761 Y118.34 E.03415
G1 X194.477 Y117.934 E.03461
G1 X195.152 Y117.466 E.03455
G1 X195.477 Y117.203 E.0176
G1 X196.076 Y116.647 E.03441
G1 X196.244 Y116.465 E.01041
G1 X196.235 Y125.735 E.38996
G1 X23.765 Y125.735 E7.25513
G1 X23.765 Y94.265 E1.32382
G1 X196.235 Y94.265 E7.25512
G1 X196.235 Y101.277 E.29498
G1 X196.243 Y103.533 E.0949
G1 X196.117 Y103.397 E.00779
G1 E-1.11111 F2400
;WIPE_START
G1 F2700
G1 X195.471 Y102.792 E-.78734
G1 X195.382 Y102.72 E-.10155
;WIPE_END
G1 X195.652 Y95.755 F18000
G1 E2 F2400
;TYPE:Bottom surface
;WIDTH:0.499999
G1 F2700
G1 X194.947 Y95.05 E.04193
G1 X194.313 Y95.05 E.02668
G1 X195.45 Y96.187 E.06766
G1 X195.45 Y96.821 E.02668
G1 X193.679 Y95.05 E.10539
G1 X193.044 Y95.05 E.02668
G1 X195.45 Y97.456 E.14312
G1 X195.45 Y98.09 E.02668
G1 X192.41 Y95.05 E.18085
G1 X191.776 Y95.05 E.02668
G1 X195.45 Y98.724 E.21859
G1 X195.45 Y99.358 E.02668
G1 X191.142 Y95.05 E.25632
G1 X190.507 Y95.05 E.02668
G1 X195.45 Y99.993 E.29405
G1 X195.45 Y100.627 E.02668
G1 X189.873 Y95.05 E.33178
G1 X189.239 Y95.05 E.02668
G1 X195.45 Y101.261 E.36952
G1 X195.452 Y101.787 E.02211
G1 X195.093 Y101.539 E.01834
G1 X188.604 Y95.05 E.38603
G1 X187.97 Y95.05 E.02668
G1 X193.681 Y100.761 E.33976
G1 X193.307 Y100.59 E.01731
G1 X192.64 Y100.354 E.02979
G1 X187.336 Y95.05 E.31552
G1 X186.702 Y95.05 E.02668
G1 X191.762 Y100.11 E.30106
G1 X190.984 Y99.966 E.0333
G1 X186.067 Y95.05 E.29249
G1 X185.433 Y95.05 E.02668
G1 X190.272 Y99.888 E.28784
G1 X189.834 Y99.855 E.01844
G1 X189.606 Y99.857 E.0096
G1 X184.799 Y95.05 E.28599
G1 X184.165 Y95.05 E.02668
G1 X188.979 Y99.864 E.2864
G1 X188.399 Y99.918 E.0245
G1 X183.53 Y95.05 E.28963
G1 X182.896 Y95.05 E.02668
G1 X187.839 Y99.993 E.29408
G1 X187.306 Y100.094 E.02284
G1 X182.262 Y95.05 E.30008
G1 X181.628 Y95.05 E.02668
G1 X186.802 Y100.224 E.30783
G1 X186.308 Y100.365 E.0216
G1 X180.993 Y95.05 E.31618
G1 X180.359 Y95.05 E.02668
G1 X185.848 Y100.539 E.32655
G1 X185.395 Y100.72 E.02052
G1 X179.725 Y95.05 E.33734
G1 X179.09 Y95.05 E.02668
G1 X184.968 Y100.927 E.34964
G1 X184.55 Y101.144 E.01979
G1 X178.456 Y95.05 E.36255
G1 X177.822 Y95.05 E.02668
G1 X184.153 Y101.381 E.37665
G1 X183.766 Y101.628 E.01933
G1 X177.188 Y95.05 E.39132
G1 X176.553 Y95.05 E.02668
G1 X183.399 Y101.896 E.40725
G1 X183.045 Y102.176 E.01899
G1 X175.919 Y95.05 E.42393
G1 X175.285 Y95.05 E.02668
G1 X182.702 Y102.467 E.44122
G1 X182.378 Y102.777 E.01887
G1 X174.651 Y95.05 E.45968
G1 X174.016 Y95.05 E.02668
G1 X182.066 Y103.099 E.47887
G1 X181.764 Y103.432 E.01889
G1 X173.382 Y95.05 E.49867
G1 X172.748 Y95.05 E.02668
G1 X181.48 Y103.782 E.5195
G1 X181.214 Y104.15 E.0191
G1 X172.114 Y95.05 E.54136
G1 X171.479 Y95.05 E.02668
G1 X180.958 Y104.529 E.5639
G1 X180.719 Y104.924 E.01943
G1 X170.845 Y95.05 E.5874
G1 X170.211 Y95.05 E.02668
G1 X180.493 Y105.332 E.61169
G1 X180.282 Y105.756 E.0199
G1 X169.576 Y95.05 E.63689
G1 X168.942 Y95.05 E.02668
G1 X180.096 Y106.203 E.66353
G1 X179.917 Y106.659 E.02059
G1 X168.308 Y95.05 E.69064
G1 X167.674 Y95.05 E.02668
G1 X179.762 Y107.138 E.71913
G1 X179.63 Y107.641 E.02186
G1 X167.039 Y95.05 E.74902
G1 X166.405 Y95.05 E.02668
G1 X179.524 Y108.169 E.78045
G1 X179.434 Y108.713 E.02321
G1 X165.771 Y95.05 E.81284
G1 X165.137 Y95.05 E.02668
G1 X179.383 Y109.297 E.84754
G1 X179.354 Y109.902 E.02549
G1 X164.502 Y95.05 E.88355
G1 X163.868 Y95.05 E.02668
G1 X179.369 Y110.55 E.92213
G1 X179.435 Y111.252 E.02963
G1 X163.234 Y95.05 E.96384
G1 X162.6 Y95.05 E.02668
G1 X179.56 Y112.01 E1.00899
G1 X179.64 Y112.41 E.01713
G1 X179.756 Y112.84 E.01876
G1 X161.965 Y95.05 E1.05837
G1 X161.331 Y95.05 E.02668
G1 X180.495 Y114.214 E1.14009
G1 E-1.11111 F2400
;WIPE_START
G1 F2700
G1 X179.788 Y113.507 E-.88889
;WIPE_END
G1 X195.203 Y118.14 F18000
G1 E2 F2400
G1 F2700
G1 X195.458 Y118.394 E.01512
G1 X195.457 Y119.028 E.02665
G1 X194.974 Y118.544 E.02876
G1 X194.575 Y118.78 E.01947
G1 X195.456 Y119.661 E.05242
G1 X195.456 Y120.295 E.02665
G1 X194.171 Y119.01 E.07645
G1 X193.739 Y119.213 E.02005
G1 X195.455 Y120.929 E.10208
G1 X195.454 Y121.562 E.02665
G1 X193.303 Y119.41 E.12801
G1 X192.841 Y119.583 E.02073
G1 X195.454 Y122.196 E.15544
G1 X195.453 Y122.829 E.02665
G1 X192.355 Y119.731 E.1843
G1 X191.856 Y119.867 E.02174
G1 X195.453 Y123.463 E.21394
G1 X195.452 Y124.097 E.02665
G1 X191.333 Y119.978 E.24504
G1 X190.781 Y120.06 E.02348
G1 X195.451 Y124.73 E.27784
G1 X195.451 Y124.95 E.00924
G1 X195.037 Y124.95 E.01743
G1 X190.21 Y120.124 E.28713
G1 X189.595 Y120.143 E.02589
G1 X194.403 Y124.95 E.28599
G1 X193.768 Y124.95 E.02668
G1 X188.954 Y120.136 E.28641
G1 X188.251 Y120.067 E.02971
G1 X193.134 Y124.95 E.2905
G1 X192.5 Y124.95 E.02668
G1 X187.491 Y119.941 E.298
G1 X187.199 Y119.886 E.0125
G1 X186.656 Y119.74 E.02365
G1 X191.866 Y124.95 E.30994
G1 X191.231 Y124.95 E.02668
G1 X185.29 Y119.009 E.35346
G1 E-1.11111 F2400
;WIPE_START
G1 F2700
G1 X185.997 Y119.716 E-.88889
;WIPE_END
G1 X190.799 Y125.152 F18000
G1 E2 F2400
G1 F2700
G1 X184.44 Y118.793 E.3783
G1 X183.909 Y118.472 E.02608
G1 X183.196 Y117.956 E.03703
G1 X182.522 Y117.372 E.03751
G1 X181.902 Y116.731 E.03751
G1 X181.348 Y116.047 E.03703
G1 X181.077 Y115.665 E.01972
G1 X180.708 Y115.061 E.02976
G1 X160.697 Y95.05 E1.19047
G1 X160.062 Y95.05 E.02668
G1 X189.963 Y124.95 E1.77877
G1 X189.328 Y124.95 E.02668
G1 X159.428 Y95.05 E1.77877
G1 X158.794 Y95.05 E.02668
G1 X188.694 Y124.95 E1.77877
G1 X188.06 Y124.95 E.02668
G1 X158.16 Y95.05 E1.77877
G1 X157.525 Y95.05 E.02668
G1 X187.426 Y124.95 E1.77877
G1 X186.791 Y124.95 E.02668
G1 X156.891 Y95.05 E1.77877
G1 X156.257 Y95.05 E.02668
G1 X186.157 Y124.95 E1.77877
G1 X185.523 Y124.95 E.02668
G1 X155.623 Y95.05 E1.77877
G1 X154.988 Y95.05 E.02668
G1 X184.889 Y124.95 E1.77877
G1 X184.254 Y124.95 E.02668
G1 X154.354 Y95.05 E1.77877
G1 X153.72 Y95.05 E.02668
G1 X183.62 Y124.95 E1.77877
G1 X182.986 Y124.95 E.02668
G1 X153.085 Y95.05 E1.77877
G1 X152.451 Y95.05 E.02668
G1 X182.351 Y124.95 E1.77877
G1 X181.717 Y124.95 E.02668
G1 X151.817 Y95.05 E1.77877
G1 X151.183 Y95.05 E.02668
G1 X181.083 Y124.95 E1.77877
G1 X180.449 Y124.95 E.02668
G1 X150.548 Y95.05 E1.77877
G1 X149.914 Y95.05 E.02668
G1 X179.814 Y124.95 E1.77877
G1 X179.18 Y124.95 E.02668
G1 X149.28 Y95.05 E1.77877
G1 X148.646 Y95.05 E.02668
G1 X178.546 Y124.95 E1.77877
G1 X177.912 Y124.95 E.02668
G1 X148.011 Y95.05 E1.77877
G1 X147.377 Y95.05 E.02668
G1 X177.277 Y124.95 E1.77877
G1 X176.643 Y124.95 E.02668
G1 X146.743 Y95.05 E1.77877
G1 X146.109 Y95.05 E.02668
G1 X176.009 Y124.95 E1.77877
G1 X175.375 Y124.95 E.02668
G1 X145.474 Y95.05 E1.77877
G1 X144.84 Y95.05 E.02668
G1 X174.74 Y124.95 E1.77877
G1 X174.106 Y124.95 E.02668
G1 X144.206 Y95.05 E1.77877
G1 X143.571 Y95.05 E.02668
G1 X173.472 Y124.95 E1.77877
G1 X172.837 Y124.95 E.02668
G1 X142.937 Y95.05 E1.77877
G1 X142.303 Y95.05 E.02668
G1 X172.203 Y124.95 E1.77877
G1 X171.569 Y124.95 E.02668
G1 X141.669 Y95.05 E1.77877
G1 X141.034 Y95.05 E.02668
G1 X170.935 Y124.95 E1.77877
G1 X170.3 Y124.95 E.02668
G1 X140.4 Y95.05 E1.77877
G1 X139.766 Y95.05 E.02668
G1 X169.666 Y124.95 E1.77877
G1 X169.032 Y124.95 E.02668
G1 X139.132 Y95.05 E1.77877
G1 X138.497 Y95.05 E.02668
G1 X168.398 Y124.95 E1.77877
G1 X167.763 Y124.95 E.02668
G1 X137.863 Y95.05 E1.77877
G1 X137.229 Y95.05 E.02668
G1 X167.129 Y124.95 E1.77877
G1 X166.495 Y124.95 E.02668
G1 X136.595 Y95.05 E1.77877
G1 X135.96 Y95.05 E.02668
G1 X165.861 Y124.95 E1.77877
G1 X165.226 Y124.95 E.02668
G1 X135.326 Y95.05 E1.77877
G1 X134.692 Y95.05 E.02668
G1 X164.592 Y124.95 E1.77877
G1 X163.958 Y124.95 E.02668
G1 X134.057 Y95.05 E1.77877
G1 X133.423 Y95.05 E.02668
G1 X163.323 Y124.95 E1.77877
G1 X162.689 Y124.95 E.02668
G1 X132.789 Y95.05 E1.77877
G1 X132.155 Y95.05 E.02668
G1 X162.055 Y124.95 E1.77877
G1 X161.421 Y124.95 E.02668
G1 X131.52 Y95.05 E1.77877
G1 X130.886 Y95.05 E.02668
G1 X160.786 Y124.95 E1.77877
G1 X160.152 Y124.95 E.02668
G1 X130.252 Y95.05 E1.77877
G1 X129.618 Y95.05 E.02668
G1 X159.518 Y124.95 E1.77877
G1 X158.884 Y124.95 E.02668
G1 X128.983 Y95.05 E1.77877
G1 X128.349 Y95.05 E.02668
G1 X158.249 Y124.95 E1.77877
G1 X157.615 Y124.95 E.02668
G1 X127.715 Y95.05 E1.77877
G1 X127.081 Y95.05 E.02668
G1 X156.981 Y124.95 E1.77877
G1 X156.347 Y124.95 E.02668
G1 X126.446 Y95.05 E1.77877
G1 X125.812 Y95.05 E.02668
G1 X155.712 Y124.95 E1.77877
G1 X155.078 Y124.95 E.02668
G1 X125.178 Y95.05 E1.77877
G1 X124.543 Y95.05 E.02668
G1 X154.444 Y124.95 E1.77877
G1 X153.809 Y124.95 E.02668
G1 X123.909 Y95.05 E1.77877
G1 X123.275 Y95.05 E.02668
G1 X153.175 Y124.95 E1.77877
G1 X152.541 Y124.95 E.02668
G1 X122.641 Y95.05 E1.77877
G1 X122.006 Y95.05 E.02668
G1 X151.907 Y124.95 E1.77877
G1 X151.272 Y124.95 E.02668
G1 X121.372 Y95.05 E1.77877
G1 X120.738 Y95.05 E.02668
G1 X150.638 Y124.95 E1.77877
G1 X150.004 Y124.95 E.02668
G1 X120.104 Y95.05 E1.77877
G1 X119.469 Y95.05 E.02668
G1 X149.37 Y124.95 E1.77877
G1 X148.735 Y124.95 E.02668
G1 X118.835 Y95.05 E1.77877
G1 X118.201 Y95.05 E.02668
G1 X148.101 Y124.95 E1.77877
G1 X147.467 Y124.95 E.02668
G1 X117.566 Y95.05 E1.77877
G1 X116.932 Y95.05 E.02668
G1 X146.833 Y124.95 E1.77877
G1 X146.198 Y124.95 E.02668
G1 X116.298 Y95.05 E1.77877
G1 X115.664 Y95.05 E.02668
G1 X145.564 Y124.95 E1.77877
G1 X144.93 Y124.95 E.02668
G1 X115.029 Y95.05 E1.77877
G1 X114.395 Y95.05 E.02668
G1 X144.295 Y124.95 E1.77877
G1 X143.661 Y124.95 E.02668
G1 X113.761 Y95.05 E1.77877
G1 X113.127 Y95.05 E.02668
G1 X143.027 Y124.95 E1.77877
G1 X142.393 Y124.95 E.02668
G1 X112.492 Y95.05 E1.77877
G1 X111.858 Y95.05 E.02668
G1 X141.758 Y124.95 E1.77877
G1 X141.124 Y124.95 E.02668
G1 X111.224 Y95.05 E1.77877
G1 X110.59 Y95.05 E.02668
G1 X140.49 Y124.95 E1.77877
G1 X139.856 Y124.95 E.02668
G1 X109.955 Y95.05 E1.77877
G1 X109.321 Y95.05 E.02668
G1 X139.221 Y124.95 E1.77877
G1 X138.587 Y124.95 E.02668
G1 X108.687 Y95.05 E1.77877
G1 X108.052 Y95.05 E.02668
G1 X137.953 Y124.95 E1.77877
G1 X137.318 Y124.95 E.02668
G1 X107.418 Y95.05 E1.77877
G1 X106.784 Y95.05 E.02668
G1 X136.684 Y124.95 E1.77877
G1 X136.05 Y124.95 E.02668
G1 X106.15 Y95.05 E1.77877
G1 X105.515 Y95.05 E.02668
G1 X135.416 Y124.95 E1.77877
G1 X134.781 Y124.95 E.02668
G1 X104.881 Y95.05 E1.77877
G1 X104.247 Y95.05 E.02668
G1 X134.147 Y124.95 E1.77877
G1 X133.513 Y124.95 E.02668
G1 X103.613 Y95.05 E1.77877
G1 X102.978 Y95.05 E.02668
G1 X132.879 Y124.95 E1.77877
G1 X132.244 Y124.95 E.02668
G1 X102.344 Y95.05 E1.77877
G1 X101.71 Y95.05 E.02668
G1 X131.61 Y124.95 E1.77877
G1 X130.976 Y124.95 E.02668
